!!!!SEGMENT: pl-cz--iii-107--002_dankowski-adalbert--vesperae-es-tecum-principium.krn
!!!cenid: 18xx:762
!!!COM: Dankowski, Adalbert
!!!COM-rismID: pe30000793
!!!CDT: ~1760-~1836
!!!CNT: Polish
!!!OPR: Vesperae Es
!!!OTL: Tecum principium
!!!OMV: 002
!!!PDT: 1825
!!!AGN: Sacred; Vespers
!!!SMS-siglum: PL-CZ
!!!SMS-shelfmark: III-107
!!!SMS-shelfwork: 001-002 M
!!!SMS-variant:
!!!SMS-altvar:
!!!NIFC-rismSourceID: 300000115
!!!NIFC-islandoraID: pl-cz:34263
!!!URL-pdf-islandora: https://repozytorium.nifc.pl/islandora/object/pl-cz%3A34263/datastream/PDF/view
!!!URL-scan:
!!!ONB-nifc: UWAGA: części Vesperae: Dixit Dominus, Tecum principium, Iudicabit, De torrente, Gloria patri, Sicut erat, Magnificat, Et exsultavit, Quia fecit, Deposuit potentes, Gloria patri, Sicut erat
!!!AIN: 1 alto 1 bass 2 clars 2 cor 1 organ 1 soprn 1 tenor 2 violn
!!!key: B-
**kern	**fba	**dynam	**kern	**dynam	**kern	**dynam	**kern	**kern	**kern	**kern	**text	**kern	**kern	**kern	**dynam	**kern	**dynam
*part11	*	*part11	*part10	*part10	*part9	*part9	*part8	*part7	*part6	*part5	*part5	*part4	*part3	*part2	*part2	*part1	*part1
*group5	*	*	*group4	*	*group4	*	*group3	*group3	*group3	*group3	*	*group2	*group2	*group1	*	*group1	*
*staff11	*	*	*staff10	*	*staff9	*	*staff8	*staff7	*staff6	*staff5	*staff5	*staff4	*staff3	*staff2	*	*staff1	*
*I"Organo.	*	*	*I"Violino Secondo.	*	*I"Violino Primo	*	*I"Baſso	*I"Tenore	*I"Alto!	*I"Soprano.	*	*I"Corno Secondo in Dis Obligato.	*I"Corno Prymo in Dis Obligato	*I"Clarinetto Secundo in Dis	*	*I"Clarinetto. Primo. in Dis.	*
*I'org	*	*	*I'vl 2	*	*I'vl 1	*	*I'B	*I'T	*I'A	*I'S	*	*I'cor 2 in D#	*I'cor 1 in D#	*I'cl 2 in B♭	*	*I'cl 1 in B♭	*
*Iorgan	*	*	*Ivioln	*	*Ivioln	*	*Ibass	*Itenor	*Ialto	*Isoprn	*	*Icor	*Icor	*Iclars	*	*Iclars	*
*ICklav	*	*	*ICstr	*	*ICstr	*	*ICvox	*ICvox	*ICvox	*ICvox	*	*ICbras	*ICbras	*ICww	*	*ICww	*
*IGconc	*	*	*	*	*	*	*	*	*	*	*	*	*	*	*	*	*
*clefF4	*	*	*clefG2	*	*clefG2	*	*clefF4	*clefC4	*clefC3	*clefC1	*	*clefG2	*clefG2	*clefG2	*	*clefG2	*
*	*	*	*	*	*	*	*	*	*	*	*	*ITrd5c9	*ITrd5c9	*ITrd1c2	*	*ITrd1c2	*
*k[b-e-]	*	*	*k[b-e-]	*	*k[b-e-]	*	*k[b-e-]	*k[b-e-]	*k[b-e-]	*k[b-e-]	*	*k[b-e-a-]	*k[b-e-a-]	*k[b-e-]	*	*k[b-e-]	*
*B-:	*	*	*B-:	*	*B-:	*	*B-:	*B-:	*B-:	*B-:	*	*	*	*	*	*	*
*M2/4	*	*	*M2/4	*	*M2/4	*	*M2/4	*M2/4	*M2/4	*M2/4	*	*M2/4	*M2/4	*M2/4	*	*M2/4	*
=1	=1	=1	=1	=1	=1	=1	=1	=1	=1	=1	=1	=1	=1	=1	=1	=1	=1
*2\right	*	*2\right	*2\right	*2\right	*2\right	*2\right	*2\right	*2\right	*2\right	*2\right	*2\right	*2\right	*2\right	*2\right	*2\right	*2\right	*2\right
!LO:TX:a:B:t=Andante	!	!	!	!	!	!	!	!	!	!LO:TX:b:t=18	!	!	!	!LO:TX:a:t=P:problem:all\right	!	!LO:TX:a:t=P:problem:all\right	!
!LO:TX:a:i:t=Solo	!	!	!LO:TX:a:B:t=Andante.	!	!LO:TX:a:B:t=Andante	!	!	!	!	!LO:TX:b:B:t=Andante	!	!	!	!LO:TX:a:B:t=Andante	!	!LO:TX:a:B:t=Andante.	!
!	!	!	!	!	!	!	!LO:TX:a:t=Tacet	!LO:TX:a:t=Tacet	!LO:TX:a:t=Tacet.	!	!	!LO:TX:a:t=Tacet.	!LO:TX:t=Tacet	!LO:TX:a:t=[in B-]	!	!LO:TX:a:t=[in B-]	!
!	!	!	!	!LO:DY:a:t=p.	!	!	!	!	!	!LO:N:vis=00	!	!	!	!	!	!	!
8r	.	.	(16B-/LL	p	(16b-\LL	.	2ryy	2ryy	2ryy	0r	.	2ryy	2ryy	2dd\	.	2ff\	.
.	.	.	16d/JJ)	.	16dd\JJ)	.	.	.	.	.	.	.	.	.	.	.	.
8B-\L	.	.	4f/	.	4ff\	.	.	.	.	.	.	.	.	.	.	.	.
8d\	.	.	.	.	.	.	.	.	.	.	.	.	.	.	.	.	.
8B-\J	.	.	(16d/LL	.	(16dd\LL	.	.	.	.	.	.	.	.	.	.	.	.
.	.	.	16f/JJ)	.	16ff\JJ)	.	.	.	.	.	.	.	.	.	.	.	.
=2	=2	=2	=2	=2	=2	=2	=2	=2	=2	=2	=2	=2	=2	=2	=2	=2	=2
8r	.	.	(16f/LL	.	16ff\LL	.	2ryy	2ryy	2ryy	.	.	2ryy	2ryy	2cc\	.	2ee-\	.
.	.	.	16e-/JJ)	.	16ee-\JJ	.	.	.	.	.	.	.	.	.	.	.	.
8c\L	.	.	4c/	.	4cc\	.	.	.	.	.	.	.	.	.	.	.	.
8A\	.	.	.	.	.	.	.	.	.	.	.	.	.	.	.	.	.
8F\J	.	.	8e-/	.	8ee-\	.	.	.	.	.	.	.	.	.	.	.	.
=3	=3	=3	=3	=3	=3	=3	=3	=3	=3	=3	=3	=3	=3	=3	=3	=3	=3
!LO:TX:a:t=P:problem:mixed beam	!	!	!	!	!	!	!	!	!	!	!	!	!	!	!	!	!
8B-\L	.	.	8f/L	.	16ee-\LL	.	2ryy	2ryy	2ryy	.	.	2ryy	2ryy	8b-/L	.	8dd\L	.
.	.	.	.	.	(16dd\	.	.	.	.	.	.	.	.	.	.	.	.
8E-\	x 6	.	(16g/L	.	16ee-\	.	.	.	.	.	.	.	.	16g/L	.	16ee-\L	.
.	.	.	16e-/JJ)	.	16cc\JJ)	.	.	.	.	.	.	.	.	16e-/JJ	.	16cc\JJ	.
8F\	x 4	.	(16e-/LL	.	(16cc\LL	.	.	.	.	.	.	.	.	(16e-/LL	.	16cc\LL	.
.	.	.	16d/)	.	16b-\	.	.	.	.	.	.	.	.	16d/)	.	16b-\	.
8FF/J	x 3	.	(16d/	.	16b-\)	.	.	.	.	.	.	.	.	(16d/	.	16b-\	.
.	.	.	16c/JJ)	.	16a\JJ	.	.	.	.	.	.	.	.	16c/JJ)	.	16a\JJ	.
=4	=4	=4	=4	=4	=4	=4	=4	=4	=4	=4	=4	=4	=4	=4	=4	=4	=4
!LO:TX:a:t=P:problem:mixed beam	!	!	!	!	!LO:TX:a:t=P:problem:mixed beam	!	!	!	!	!	!	!	!	!	!	!	!
8BB-/L	.	.	8d/L	.	16b-\LL	.	2ryy	2ryy	2ryy	.	.	2ryy	2ryy	4d/	.	4b-\	.
.	.	.	.	.	16dd\J	.	.	.	.	.	.	.	.	.	.	.	.
8B-\	.	.	8d/J	.	8f/J	.	.	.	.	.	.	.	.	.	.	.	.
8BB-/J	.	.	16r	.	16r	.	.	.	.	.	.	.	.	4r	.	4r	.
!	!	!	!LO:TX:a:t=P:problem:mixed beam	!	!	!	!	!	!	!	!	!	!	!	!	!	!
.	.	.	(16d/LL	.	(16b-\LL	.	.	.	.	.	.	.	.	.	.	.	.
8r	.	.	16dd\	.	16ff\	.	.	.	.	.	.	.	.	.	.	.	.
.	.	.	16b-\JJ)	.	16dd\JJ)	.	.	.	.	.	.	.	.	.	.	.	.
!	!	!	!	!	!LO:LB:g=original	!	!	!	!	!	!	!	!	!	!	!	!
=5	=5	=5	=5	=5	=5	=5	=5	=5	=5	=5	=5	=5	=5	=5	=5	=5	=5
!	!	!	!	!	!	!	!	!	!	!LO:N:vis=00	!	!	!	!LO:TX:a:t=3.	!	!LO:TX:a:t=3.	!
!	!	!	!	!	!	!	!	!	!	!	!	!	!	!LO:N:vis=0	!	!LO:N:vis=0	!
8r	.	.	(16b-\LL	.	16dd\LL	.	2ryy	2ryy	2ryy	0r	.	2ryy	2ryy	1r	.	1r	.
.	.	.	16a\J)	.	16cc\J	.	.	.	.	.	.	.	.	.	.	.	.
8F\L	.	.	8a\J	.	8cc\J	.	.	.	.	.	.	.	.	.	.	.	.
8F\	.	.	16r	.	16r	.	.	.	.	.	.	.	.	.	.	.	.
.	.	.	(16ee-\LL	.	16gg\LL	.	.	.	.	.	.	.	.	.	.	.	.
8A\J	.	.	16dd\	.	16ff\	.	.	.	.	.	.	.	.	.	.	.	.
.	.	.	16cc\JJ)	.	16ee-\JJ	.	.	.	.	.	.	.	.	.	.	.	.
=6	=6	=6	=6	=6	=6	=6	=6	=6	=6	=6	=6	=6	=6	=6	=6	=6	=6
8r	.	.	16b-\LL	.	16dd\LL	.	2ryy	2ryy	2ryy	.	.	2ryy	2ryy	.	.	.	.
.	.	.	16cc\J	.	16ee-\J	.	.	.	.	.	.	.	.	.	.	.	.
8B-\L	.	.	8dd\J	.	8ff\J	.	.	.	.	.	.	.	.	.	.	.	.
8B-\	.	.	16r	.	16r	.	.	.	.	.	.	.	.	.	.	.	.
.	.	.	16dd\LL	.	16ff\LL	.	.	.	.	.	.	.	.	.	.	.	.
8B-\J	.	.	16dd\	.	16ff\	.	.	.	.	.	.	.	.	.	.	.	.
.	.	.	16dd\JJ	.	16ff\JJ	.	.	.	.	.	.	.	.	.	.	.	.
!	!	!	!LO:LB:g=original	!	!	!	!	!	!	!	!	!	!	!	!	!	!
=7	=7	=7	=7	=7	=7	=7	=7	=7	=7	=7	=7	=7	=7	=7	=7	=7	=7
!LO:TX:a:t=P:problem:mixed beam	!	!	!	!	!	!	!	!	!	!	!	!	!	!	!	!	!
8B-\L	.	.	(16dd\LL	.	16ff\LL	.	2ryy	2ryy	2ryy	.	.	2ryy	2ryy	2r	.	2r	.
.	.	.	16b-\)	.	16dd\	.	.	.	.	.	.	.	.	.	.	.	.
8BB-/	.	.	(16ee-\	.	16gg\	.	.	.	.	.	.	.	.	.	.	.	.
.	.	.	16dd\JJ)	.	16ff\JJ	.	.	.	.	.	.	.	.	.	.	.	.
8E-/	x 6	.	(16dd\LL	.	16ff\LL	.	.	.	.	.	.	.	.	.	.	.	.
.	.	.	16cc\)	.	16ee-\	.	.	.	.	.	.	.	.	.	.	.	.
8En/J	x 5	.	(16cc\	.	16ee-\	.	.	.	.	.	.	.	.	.	.	.	.
.	.	.	16b-\JJ)	.	16dd\JJ	.	.	.	.	.	.	.	.	.	.	.	.
!LO:LB:g=original	!	!	!	!	!	!	!	!	!	!	!	!	!	!	!	!	!
=8	=8	=8	=8	=8	=8	=8	=8	=8	=8	=8	=8	=8	=8	=8	=8	=8	=8
!LO:TX:a:t=P:problem:mixed beam	!	!	!	!	!	!	!	!	!	!	!	!	!	!LO:TX:a:i:t=Solo.	!	!LO:TX:a:i:t=Solo.	!
8F\L	.	.	8b-\L	.	8dd\L	.	2ryy	2ryy	2ryy	.	.	2ryy	2ryy	4r	.	4r	.
8FF/	.	.	8a\	.	8cc\J	.	.	.	.	.	.	.	.	.	.	.	.
8F\J	.	.	8a\J	.	4r	.	.	.	.	.	.	.	.	8r	.	8r	.
8r	.	.	8r	.	.	.	.	.	.	.	.	.	.	16dd\LL	.	16ff\LL	.
.	.	.	.	.	.	.	.	.	.	.	.	.	.	16cc\JJ	.	16ee-\JJ	.
!	!	!	!	!	!	!	!	!	!	!	!	!	!	!	!	!LO:LB:g=original	!
=9	=9	=9	=9	=9	=9	=9	=9	=9	=9	=9	=9	=9	=9	=9	=9	=9	=9
!LO:TX:a:t=3.	!	!	!	!	!	!	!	!	!	!	!	!	!	!	!	!	!
.	.	.	.	.	.	.	.	.	.	.	.	.	.	8qqcc/	.	8qqee-/	.
*	*	*	*	*	*	*below	*	*	*	*	*	*	*	*	*	*	*
!LO:N:vis=0	!	!	!	!LO:DY:rj	!	!	!	!	!	!LO:N:vis=00	!	!	!	!	!	!	!
1r	.	.	8r	p	8r	.	2ryy	2ryy	2ryy	0r	.	2ryy	2ryy	8b-\	.	8dd\	.
!	!	!	!	!	!	!LO:DY:rj	!	!	!	!	!	!	!	!	!	!	!
.	.	.	8B-/L	.	8B-/L	p	.	.	.	.	.	.	.	4b-\	.	4dd\	.
.	.	.	8B-/	.	8B-/	.	.	.	.	.	.	.	.	.	.	.	.
.	.	.	8B-/J	.	8B-/J	.	.	.	.	.	.	.	.	16ee-\LL	.	16gg\LL	.
.	.	.	.	.	.	.	.	.	.	.	.	.	.	16dd\JJ	.	16ff\JJ	.
=10	=10	=10	=10	=10	=10	=10	=10	=10	=10	=10	=10	=10	=10	=10	=10	=10	=10
.	.	.	8r	.	8r	.	2ryy	2ryy	2ryy	.	.	2ryy	2ryy	(32dd\LLL	.	(32ff\LLL	.
.	.	.	.	.	.	.	.	.	.	.	.	.	.	32cc\	.	32ee-\	.
.	.	.	.	.	.	.	.	.	.	.	.	.	.	32b-\)	.	32dd\)	.
.	.	.	.	.	.	.	.	.	.	.	.	.	.	32cc'\JJ	.	32ee-\JJ	.
.	.	.	8A/L	.	8A/L	.	.	.	.	.	.	.	.	8cc'\J	.	8ee-'\J	.
.	.	.	8A/	.	8A/	.	.	.	.	.	.	.	.	8r	.	8r	.
.	.	.	8A/J	.	8A/J	.	.	.	.	.	.	.	.	16cc\LL	.	16ee-\LL	.
.	.	.	.	.	.	.	.	.	.	.	.	.	.	16b-\JJ	.	16dd\JJ	.
!	!	!	!	!	!LO:LB:g=original	!	!	!	!	!	!	!	!	!	!	!	!
=11	=11	=11	=11	=11	=11	=11	=11	=11	=11	=11	=11	=11	=11	=11	=11	=11	=11
.	.	.	.	.	.	.	.	.	.	.	.	.	.	8qqb-/	.	8qqdd/	.
2r	.	.	8r	.	8r	.	2ryy	2ryy	2ryy	.	.	2ryy	2ryy	8a\	.	8cc\	.
.	.	.	8f/L	.	8f/L	.	.	.	.	.	.	.	.	4a\	.	4cc\	.
.	.	.	8f/	.	8f/	.	.	.	.	.	.	.	.	.	.	.	.
.	.	.	8f/J	.	8f/J	.	.	.	.	.	.	.	.	16dd\LL	.	16ff\LL	.
.	.	.	.	.	.	.	.	.	.	.	.	.	.	16cc\JJ	.	16ee-\JJ	.
=12	=12	=12	=12	=12	=12	=12	=12	=12	=12	=12	=12	=12	=12	=12	=12	=12	=12
4r	.	.	8B-/L	.	8B-/L	.	2ryy	2ryy	2ryy	.	.	2ryy	2ryy	(32cc\LLL	.	(32ee-\LLL	.
.	.	.	.	.	.	.	.	.	.	.	.	.	.	32b-\	.	32dd\	.
.	.	.	.	.	.	.	.	.	.	.	.	.	.	32an\)	.	32cc\)	.
.	.	.	.	.	.	.	.	.	.	.	.	.	.	32b-\JJ	.	32dd\JJ	.
.	.	.	8B-/J	.	8B-/J	.	.	.	.	.	.	.	.	8b-|\J	.	8dd'\J	.
!	!	!	!	!LO:DY:a:t=f.	!	!	!	!	!	!	!	!	!	!	!	!	!
8B-\L	.	.	(16B-/LL	f	(16b-\LL	f	.	.	.	.	.	.	.	8r	.	8r	.
.	.	.	16d/)	.	16dd\)	.	.	.	.	.	.	.	.	.	.	.	.
8d\J	x 6	.	16f|/	.	16ff|\	.	.	.	.	.	.	.	.	8b-\	.	8dd\	.
.	.	.	16f|/JJ	.	16ff|\JJ	.	.	.	.	.	.	.	.	.	.	.	.
!	!	!	!	!	!	!	!	!	!	!	!	!	!	!LO:LB:g=original	!	!	!
=13	=13	=13	=13	=13	=13	=13	=13	=13	=13	=13	=13	=13	=13	=13	=13	=13	=13
!	!	!	!	!	!	!	!	!	!	!LO:N:vis=00	!	!	!	!	!	!	!
8A\L	8 5	.	(16f/LL	.	16ff\LL	.	2ryy	2ryy	2ryy	0r	.	2ryy	2ryy	4cc\	.	4ee-\	.
.	.	.	16e-/)	.	(16ee-\	.	.	.	.	.	.	.	.	.	.	.	.
8F\	.	.	(16c/	.	16cc\	.	.	.	.	.	.	.	.	.	.	.	.
.	.	.	16A/JJ)	.	16a\JJ)	.	.	.	.	.	.	.	.	.	.	.	.
8B-\	.	.	(16B-/LL	.	(16b-\LL	.	.	.	.	.	.	.	.	4b-\	.	8dd\	.
.	.	.	16d/)	.	16dd\	.	.	.	.	.	.	.	.	.	.	.	.
8d\J	x 6	.	16f|/	.	16ff\)	.	.	.	.	.	.	.	.	.	.	8r	.
.	.	.	16f|/JJ	.	16ff\JJ	.	.	.	.	.	.	.	.	.	.	.	.
!	!	!	!LO:LB:g=original	!	!	!	!	!	!	!	!	!	!	!	!	!	!
=14	=14	=14	=14	=14	=14	=14	=14	=14	=14	=14	=14	=14	=14	=14	=14	=14	=14
!	!	!	!	!	!	!	!	!	!	!	!	!	!	!	!	!LO:TX:a:t=P:problem:t. 14 zapisany repetycją	!
8A\L	6 5	.	(16f/LL	.	16ff\LL	.	2ryy	2ryy	2ryy	.	.	2ryy	2ryy	(4cc\	.	4ee-\yy	.
.	.	.	16e-/)	.	16ee-\	.	.	.	.	.	.	.	.	.	.	.	.
8F\	.	.	(16c/	.	16cc\	.	.	.	.	.	.	.	.	.	.	.	.
.	.	.	16A/JJ)	.	16a\JJ	.	.	.	.	.	.	.	.	.	.	.	.
8B-\J	.	.	(16B-/LL	.	16b-\LL	.	.	.	.	.	.	.	.	8b-\)	.	8dd\yy	.
.	.	.	16d/)	.	16dd\	.	.	.	.	.	.	.	.	.	.	.	.
8r	.	.	(16f/	.	16ff\	.	.	.	.	.	.	.	.	8r	.	8ryy	.
!	!	!	!	!	!LO:SIC:v:s=16ff#\JJ	!	!	!	!	!	!	!	!	!	!	!	!
.	.	.	16f#X/JJ)	.	16ff\JJ	.	.	.	.	.	.	.	.	.	.	.	.
!	!	!	!	!	!LO:LB:g=original	!	!	!	!	!	!	!	!	!	!	!	!
=15	=15	=15	=15	=15	=15	=15	=15	=15	=15	=15	=15	=15	=15	=15	=15	=15	=15
*tremolo	*	*	*	*	*	*	*	*	*	*	*	*	*	*	*	*	*
!	!	!	!	!	!	!	!	!	!	!	!	!	!	!LO:TX:a:i:t=Solo	!	!	!
8B-\L	6 4	.	8g/	p	8gg\	.	2ryy	2ryy	2ryy	.	.	2ryy	2ryy	8r	.	8r	.
8B-\	.	.	4e-/	.	4g/	.	.	.	.	.	.	.	.	4ee-\	.	4gg\	.
8B-\	.	.	.	.	.	.	.	.	.	.	.	.	.	.	.	.	.
8B-\J	.	.	16d/LL	.	16f/LL	.	.	.	.	.	.	.	.	16dd\LL	.	16ff\LL	.
.	.	.	16c/JJ	.	16e-/JJ	.	.	.	.	.	.	.	.	16cc\JJ	.	16ee-\JJ	.
=16	=16	=16	=16	=16	=16	=16	=16	=16	=16	=16	=16	=16	=16	=16	=16	=16	=16
8B-\L	5 3	.	16c/LL	.	16e-/LL	.	2ryy	2ryy	2ryy	.	.	2ryy	2ryy	16cc\LL	.	16ee-\LL	.
.	.	.	16B-/JJ	.	16d/JJ	.	.	.	.	.	.	.	.	16b-\JJ	.	16dd\JJ	.
8B-\	.	.	4B-/	.	4d/	.	.	.	.	.	.	.	.	4b-\	.	4dd\	.
8B-\	.	.	.	.	.	.	.	.	.	.	.	.	.	.	.	.	.
8B-\J	.	.	8d/	.	16f/LL	.	.	.	.	.	.	.	.	8dd\	.	16ff\LL	.
.	.	.	.	.	16b-/JJ	.	.	.	.	.	.	.	.	.	.	16bb-\JJ	.
*Xtremolo	*	*	*	*	*	*	*	*	*	*	*	*	*	*	*	*	*
=17	=17	=17	=17	=17	=17	=17	=17	=17	=17	=17	=17	=17	=17	=17	=17	=17	=17
!LO:TX:a:t=P:problem:mixed beam	!	!	!	!	!	!	!	!	!	!LO:N:vis=0	!	!	!	!	!	!	!
8E-\L	x 6	.	8e-/L	.	8g/L	.	2ryy	2ryy	2ryy	1r	.	2ryy	2ryy	8ee-\L	.	8gg\L	.
*	*	*	*	*	*Xtuplet	*	*	*	*	*	*	*	*	*	*	*	*
!	!	!	!LO:TUP:b:problem:klamra łukowa	!	!	!	!	!	!	!	!	!	!	!LO:TUP:a:problem:klamra łukowa	!	!LO:TUP:a:problem:klamra łukowa	!
8E-\	.	.	24e-/L	.	24g/L	.	.	.	.	.	.	.	.	24ee-\L	.	24gg\L	.
.	.	.	24d/	.	24f/	.	.	.	.	.	.	.	.	24dd\	.	24ff\	.
.	.	.	24c/JJ	.	24e-/JJ	.	.	.	.	.	.	.	.	24cc\JJ	.	24ee-\JJ	.
8F\	x 4	.	8B-/L	.	8d/L	.	.	.	.	.	.	.	.	8b-\L	.	8dd\L	.
8FF/J	x 3	.	8A/J	.	8c/J	.	.	.	.	.	.	.	.	8a\J	.	8cc\J	.
=18	=18	=18	=18	=18	=18	=18	=18	=18	=18	=18	=18	=18	=18	=18	=18	=18	=18
!LO:TX:a:t=P:problem:mixed beam	!	!	!	!	!	!	!	!	!	!	!	!	!	!	!	!	!
8BB-/L	.	.	4A/	.	4c/	.	2ryy	2ryy	2ryy	.	.	2ryy	2ryy	4a\	.	4cc\	.
8B-\	.	.	.	.	.	.	.	.	.	.	.	.	.	.	.	.	.
8BB-/J	.	.	8B-/	.	8d/	.	.	.	.	.	.	.	.	8b-\	.	8b-\	.
8r	.	.	8r	.	8r	.	.	.	.	.	.	.	.	8r	.	8r	.
=19	=19	=19	=19	=19	=19	=19	=19	=19	=19	=19	=19	=19	=19	=19	=19	=19	=19
!	!	!	!	!LO:DY:a:t=p.	!	!LO:DY:rj	!	!	!	!LO:TX:a:i:t=Solo	!	!	!	!LO:TX:a:t=3	!	!LO:TX:a:t=3	!
!	!	!	!	!	!	!	!	!	!	!	!	!	!	!LO:N:vis=0	!	!LO:N:vis=0	!
8r	.	.	(16B-/LL	p	(16b-\LL	p	2ryy	2ryy	2ryy	16b-\LL	Te-	2ryy	2ryy	1r	.	1r	.
.	.	.	16d/JJ)	.	16dd\JJ)	.	.	.	.	16dd\JJ	.	.	.	.	.	.	.
!	!	!LO:DY:rj:t=p.	!	!	!	!	!	!	!	!	!	!	!	!	!	!	!
8B-\L	.	p	4f/	.	4ff\	.	.	.	.	4ff\	-cum	.	.	.	.	.	.
8d\	.	.	.	.	.	.	.	.	.	.	.	.	.	.	.	.	.
8B-\J	.	.	(16d/LL	.	16dd\LL	.	.	.	.	16dd\LL	prin-	.	.	.	.	.	.
.	.	.	16f/JJ)	.	16ff\JJ	.	.	.	.	16ff\JJ	.	.	.	.	.	.	.
=20	=20	=20	=20	=20	=20	=20	=20	=20	=20	=20	=20	=20	=20	=20	=20	=20	=20
8r	.	.	16f/LL	.	16ff\LL	.	2ryy	2ryy	2ryy	16ff\	-ci-	2ryy	2ryy	.	.	.	.
.	.	.	16e-/JJ	.	16ee-\JJ	.	.	.	.	16ee-\	-pi-	.	.	.	.	.	.
8c\L	.	.	4c/	.	4cc\	.	.	.	.	4cc\	-um	.	.	.	.	.	.
8A\	.	.	.	.	.	.	.	.	.	.	.	.	.	.	.	.	.
8F\J	.	.	8e-/	.	8ee-\	.	.	.	.	8ee-\	in	.	.	.	.	.	.
!LO:LB:g=original	!	!	!LO:LB:g=original	!	!	!	!	!	!	!	!	!	!	!	!	!	!
=21	=21	=21	=21	=21	=21	=21	=21	=21	=21	=21	=21	=21	=21	=21	=21	=21	=21
.	.	.	.	.	8qqee-/	.	.	.	.	.	.	.	.	.	.	.	.
!LO:TX:a:t=P:problem:mixed beam	!	!	!	!	!	!	!	!	!	!	!	!	!	!	!	!	!
8B-\L	.	.	16d/LL	.	8dd\L	.	2ryy	2ryy	2ryy	8dd\	di-	2ryy	2ryy	2r	.	2r	.
.	.	.	16f/	.	.	.	.	.	.	.	.	.	.	.	.	.	.
8E-\	.	.	16g/	.	16ee-\L	.	.	.	.	16ee-\	-e	.	.	.	.	.	.
.	.	.	16e-/JJ	.	16cc\JJ	.	.	.	.	16cc\	Vir-	.	.	.	.	.	.
!	!	!	!	!	!LO:LB:g=original	!	!	!	!	!	!	!	!	!	!	!	!
8F\	.	.	(16e-/LL	.	16cc\LL	.	.	.	.	16cc\LL	-tu-	.	.	.	.	.	.
.	.	.	16d/)	.	16b-\	.	.	.	.	16b-\JJ	.	.	.	.	.	.	.
8FF/J	.	.	(16d/	.	16b-\	.	.	.	.	16b-\LL	-tis	.	.	.	.	.	.
.	.	.	16c/JJ)	.	16a\JJ	.	.	.	.	16a\JJ	.	.	.	.	.	.	.
=22	=22	=22	=22	=22	=22	=22	=22	=22	=22	=22	=22	=22	=22	=22	=22	=22	=22
!LO:TX:a:t=P:problem:mixed beam	!	!	!	!	!	!	!	!	!	!	!	!	!	!	!	!	!
8BB-/L	.	.	8d/L	.	8b-\L	.	2ryy	2ryy	2ryy	8b-\	tu-	2ryy	2ryy	2b-\	p	2dd\	.
8B-\	.	.	8d/J	.	8b-\J	.	.	.	.	8b-\	-ae	.	.	.	.	.	.
8BB-/J	.	.	16r	.	16r	.	.	.	.	16r	.	.	.	.	.	.	.
!	!	!	!LO:TX:a:t=P:problem:mixed beam	!	!	!	!	!	!	!LO:SIC:v:s=16b-\LL	!	!	!	!	!	!	!
.	.	.	(16d/LL	.	(16b-\LL	.	.	.	.	16cc\LL	in	.	.	.	.	.	.
8r	.	.	16dd\	.	16ff\	.	.	.	.	16ff\	.	.	.	.	.	.	.
!	!	!	!	!	!	!	!	!	!	!LO:TX:a:t=P:problem:uszkodzony papier	!	!	!	!	!	!	!
.	.	.	16b-\JJ)	.	16dd\JJ)	.	.	.	.	16dd\JJyy	.	.	.	.	.	.	.
!	!	!	!	!	!	!	!	!	!	!LO:PB:g=original	!	!	!	!	!	!	!
=23	=23	=23	=23	=23	=23	=23	=23	=23	=23	=23-	=23	=23	=23	=23	=23	=23	=23
8r	.	.	(16b-\LL	.	16dd\LL	.	2ryy	2ryy	2ryy	16dd\LL	di-	2ryy	2ryy	2cc\	.	2ee-\	.
.	.	.	16a\J)	.	16cc\J	.	.	.	.	16cc\JJ	.	.	.	.	.	.	.
8F\L	.	.	8a\J	.	8cc\J	.	.	.	.	8cc\	-e	.	.	.	.	.	.
8F\	.	.	16r	.	16r	.	.	.	.	16r	.	.	.	.	.	.	.
.	.	.	(16ee-\LL	.	(16gg\LL	.	.	.	.	16gg\LL	in	.	.	.	.	.	.
8A\J	.	.	16dd\	.	16ff\	.	.	.	.	16ff\	.	.	.	.	.	.	.
.	.	.	16cc\JJ)	.	16ee-\JJ)	.	.	.	.	16ee-\JJ	.	.	.	.	.	.	.
=24	=24	=24	=24	=24	=24	=24	=24	=24	=24	=24	=24	=24	=24	=24	=24	=24	=24
8r	.	.	(16b-\LL	.	16dd\LL	.	2ryy	2ryy	2ryy	16dd\LL	di-	2ryy	2ryy	2dd\	.	2ff\	.
.	.	.	16cc\J)	.	16ee-\J	.	.	.	.	16ee-\JJ	.	.	.	.	.	.	.
!LO:TX:a:t=P:problem:mixed beam	!	!	!	!	!	!	!	!	!	!	!	!	!	!	!	!	!
8B-\L	.	.	8dd|\J	.	8ff\J	.	.	.	.	8ff\	-e	.	.	.	.	.	.
8BB-/	.	.	16r	.	16r	.	.	.	.	8r	.	.	.	.	.	.	.
.	.	.	16dd\LL	.	16ff\LL	.	.	.	.	.	.	.	.	.	.	.	.
8B-\J	.	.	16dd|\	.	16ff\	.	.	.	.	8ff\	Vir-	.	.	.	.	.	.
.	.	.	16dd\JJ	.	16ff\JJ	.	.	.	.	.	.	.	.	.	.	.	.
!	!	!	!	!	!	!	!	!	!	!	!	!	!	!	!	!LO:LB:g=original	!
=25	=25	=25	=25	=25	=25	=25	=25	=25	=25	=25	=25	=25	=25	=25	=25	=25	=25
!LO:TX:a:t=P:problem:mixed beam	!	!	!	!	!	!	!	!	!	!	!	!	!	!	!	!	!
8BB-/L	.	.	(16dd\LL	.	16ff\LL	.	2ryy	2ryy	2ryy	16ff\LL	-tu-	2ryy	2ryy	4dd\	.	4ff\	.
.	.	.	16b-\)	.	16dd\	.	.	.	.	16dd\	.	.	.	.	.	.	.
8B-\	.	.	(16ee-\	.	16gg\	.	.	.	.	16gg\	.	.	.	.	.	.	.
.	.	.	16dd\JJ)	.	16ff\JJ	.	.	.	.	16ff\JJ	.	.	.	.	.	.	.
8E-\	x 6	.	(16dd\LL	.	16ff\LL	.	.	.	.	16ff\LL	.	.	.	(16dd\LL	.	16ff\LL	.
.	.	.	16cc\)	.	16ee-\	.	.	.	.	16ee-\	.	.	.	16cc\)	.	16ee-\	.
!	!	!	!LO:SIC:v:s=(16cc\	!	!	!	!	!	!	!	!	!	!	!	!	!	!
8En\J	x 5	.	(16b-\	.	16ee-\	.	.	.	.	16ee-\	.	.	.	(16cc\	.	16ee-\	.
!	!	!	!LO:SIC:v:s=16b-\JJ)	!	!	!	!	!	!	!	!	!	!	!	!	!	!
.	.	.	16a\JJ)	.	16dd\JJ	.	.	.	.	16dd\JJ	-tis	.	.	16b-\JJ)	.	16dd\JJ	.
=26	=26	=26	=26	=26	=26	=26	=26	=26	=26	=26	=26	=26	=26	=26	=26	=26	=26
!LO:TX:a:t=P:problem:mixed beam	!	!	!	!	!	!	!	!	!	!	!	!	!	!LO:TX:a:i:t=Solo	!	!LO:TX:a:i:t=Solo.	!
8F\L	.	.	8b-\L	.	8dd\L	.	2ryy	2ryy	2ryy	8dd\	tu-	2ryy	2ryy	8b-\L	.	8dd\L	.
!	!	!	!	!	!	!	!	!	!	!LO:SIC:v:l:s=-ae	!	!	!	!	!	!	!
8FF/J	.	.	8a\J	.	8cc\J	.	.	.	.	8cc\	-e	.	.	8a\J	.	8cc\J	.
4r	.	.	4r	.	4r	.	.	.	.	4r	.	.	.	16f/LL	.	16a\LL	.
.	.	.	.	.	.	.	.	.	.	.	.	.	.	16a/	.	16cc\	.
.	.	.	.	.	.	.	.	.	.	.	.	.	.	16f/	.	16a\	.
.	.	.	.	.	.	.	.	.	.	.	.	.	.	16a/JJ	.	16cc\JJ	.
!	!	!	!	!	!LO:LB:g=original	!	!	!	!	!LO:LB:g=original	!	!	!	!	!	!	!
=27	=27	=27	=27	=27	=27	=27	=27	=27	=27	=27	=27	=27	=27	=27	=27	=27	=27
8r	.	.	8r	.	8.a\L	.	2ryy	2ryy	2ryy	8.a\L	in	2ryy	2ryy	8f/	.	8a\	.
8F\L	.	.	8a/L	.	.	.	.	.	.	.	.	.	.	8r	.	8r	.
.	.	.	.	.	16cc\Jk	.	.	.	.	16cc\Jk	.	.	.	.	.	.	.
8F\	.	.	8a/	.	(16ff\LL	.	.	.	.	16ff\LL	splen-	.	.	4r	.	4r	.
.	.	.	.	.	16cc\)	.	.	.	.	16cc\JJ	.	.	.	.	.	.	.
8F\J	.	.	8a/J	.	(16aa\	.	.	.	.	16aa\LL	.	.	.	.	.	.	.
.	.	.	.	.	16ff\JJ)	.	.	.	.	16ff\JJ	.	.	.	.	.	.	.
!	!	!	!LO:LB:g=original	!	!	!	!	!	!	!	!	!	!	!LO:LB:g=original	!	!	!
=28	=28	=28	=28	=28	=28	=28	=28	=28	=28	=28	=28	=28	=28	=28	=28	=28	=28
!	!	!	!	!	!	!	!	!	!	!	!	!	!	!LO:TX:a:t=3	!	!LO:TX:a:t=3	!
!	!	!	!	!	!	!	!	!	!	!	!	!	!	!LO:N:vis=0	!	!LO:N:vis=0	!
8r	.	.	8r	.	16ff\LL	.	2ryy	2ryy	2ryy	16ff\	-do-	2ryy	2ryy	1r	.	1r	.
.	.	.	.	.	16een\JJ	.	.	.	.	16een\	-ri-	.	.	.	.	.	.
!LO:TX:a:t=P:problem:mixed beam	!	!	!	!	!	!	!	!	!	!	!	!	!	!	!	!	!
8c\L	x n	.	8g/L	.	4ee\	.	.	.	.	4ee\	-bus	.	.	.	.	.	.
8C/	.	.	8g/	.	.	.	.	.	.	.	.	.	.	.	.	.	.
8C/J	.	.	8en/J	.	8gg\	.	.	.	.	8gg\	.	.	.	.	.	.	.
=29	=29	=29	=29	=29	=29	=29	=29	=29	=29	=29	=29	=29	=29	=29	=29	=29	=29
8r	.	.	(32a/LLL	.	32ff\LLL	.	2ryy	2ryy	2ryy	16ff\LL	San-	2ryy	2ryy	.	.	.	.
!	!	!	!	!	!LO:SIC:v:s=32een\	!	!	!	!	!	!	!	!	!	!	!	!
.	.	.	32g/	.	32ee-\	.	.	.	.	.	.	.	.	.	.	.	.
!	!	!	!	!	!	!	!	!	!	!LO:SIC:v:s=16een\	!	!	!	!	!	!	!
.	.	.	32a/	.	32ff\	.	.	.	.	16ee-\	.	.	.	.	.	.	.
.	.	.	32b-/JJJ)	.	32gg\JJJ	.	.	.	.	.	.	.	.	.	.	.	.
8F\L	.	.	4cc\	.	4aa\	.	.	.	.	16ff\	.	.	.	.	.	.	.
.	.	.	.	.	.	.	.	.	.	16gg\JJ	.	.	.	.	.	.	.
8F\	.	.	.	.	.	.	.	.	.	8aa\	-cto-	.	.	.	.	.	.
8F\J	.	.	(16b-\LL	.	16gg\LL	.	.	.	.	16gg\LL	.	.	.	.	.	.	.
.	.	.	16a\JJ)	.	16ff\JJ	.	.	.	.	16ff\JJ	.	.	.	.	.	.	.
=30	=30	=30	=30	=30	=30	=30	=30	=30	=30	=30	=30	=30	=30	=30	=30	=30	=30
!LO:TX:a:t=P:problem:mixed beam	!	!LO:DY:t=f.	!	!	!	!	!	!	!	!	!	!	!	!	!	!	!
16c\LL	.	f	8a/L	.	8ff\L	f	2ryy	2ryy	2ryy	8ff\	-rum	2ryy	2ryy	2r	.	2r	.
16C/	.	.	.	.	.	.	.	.	.	.	.	.	.	.	.	.	.
!LO:SIC:v:s=16En\	!	!	!	!	!LO:SIC:v:n=1:s=8een	!	!	!	!	!LO:SIC:v:s=8een\	!	!	!	!	!	!	!
16E-/	.	.	8g/	.	8ee- 8b- 8g\	.	.	.	.	8ee-\	.	.	.	.	.	.	.
16G/JJ	.	.	.	.	.	.	.	.	.	.	.	.	.	.	.	.	.
!	!	!	!LO:SIC:v:n=2:s=8en/	!	!LO:SIC:v:n=1:s=8ee	!	!	!	!	!	!	!	!	!	!	!	!
8c\	.	.	8ccJ 8e-/	.	8ee-J 8b- 8g\	.	.	.	.	8r	.	.	.	.	.	.	.
!	!	!	!	!	!	!	!	!	!	!LO:SIC:v:l:s=in	!	!	!	!	!	!	!
!	!	!	!	!	!	!	!	!	!	!LO:SIC:v:s=8ee\	!	!	!	!	!	!	!
8r	.	.	8r	.	8r	.	.	.	.	8ee-\	i	.	.	.	.	.	.
!LO:LB:g=original	!	!	!	!	!	!	!	!	!	!	!	!	!	!	!	!	!
=31	=31	=31	=31	=31	=31	=31	=31	=31	=31	=31	=31	=31	=31	=31	=31	=31	=31
*tremolo	*	*	*tremolo	*	*tremolo	*	*	*	*	*	*ij	*	*	*	*	*	*
!	!	!LO:DY:t=p&colon;	!	!LO:DY:b:rj:t=p.	!LO:TX:t=P:problem:||||	!LO:DY:rj	!	!	!	!	!	!	!	!	!	!	!LO:DY:t=p.
8F\L	.	p	8c/L	p	8a|/L	p	2ryy	2ryy	2ryy	16ff\LL	San-	2ryy	2ryy	2an/	.	2ff\	p
*	*	*	*	*	*	*	*	*	*	*	*Xij	*	*	*	*	*	*
.	.	.	.	.	.	.	.	.	.	16aa\J	.	.	.	.	.	.	.
8F\	.	.	8c/	.	8a|/	.	.	.	.	8aa\J	.	.	.	.	.	.	.
*	*	*	*	*	*	*	*	*	*	*custos:dd	*	*	*	*	*	*	*
!	!	!	!	!	!	!	!	!	!	!LO:TX:t=P:problem:wszystkie custos użyte jako łamanie pięciolinii 	!	!	!	!	!	!	!
8F\	.	.	8c/	.	8a|/	.	.	.	.	16r	.	.	.	.	.	.	.
!	!	!	!	!	!	!	!	!	!	!LO:LB:g=original	!	!	!	!	!	!	!
!	!	!	!	!	!	!	!	!	!	!LO:N:vis=16	!	!	!	!	!	!	!
.	.	.	.	.	.	.	.	.	.	32cc\LLL	.	.	.	.	.	.	.
!	!	!	!	!	!	!	!	!	!	!LO:N:vis=16	!	!	!	!	!	!	!
.	.	.	.	.	.	.	.	.	.	32dd\JJJ	.	.	.	.	.	.	.
8F\J	.	.	8c/J	.	8a|/J	.	.	.	.	32een\LLL	.	.	.	.	.	.	.
.	.	.	.	.	.	.	.	.	.	32ff\	.	.	.	.	.	.	.
.	.	.	.	.	.	.	.	.	.	32gg\	.	.	.	.	.	.	.
.	.	.	.	.	.	.	.	.	.	32aa\JJJ	.	.	.	.	.	.	.
=32	=32	=32	=32	=32	=32	=32	=32	=32	=32	=32	=32	=32	=32	=32	=32	=32	=32
!	!	!	!	!	!LO:TX:t=P:problem:||||	!	!	!	!	!	!	!	!	!	!	!	!
8C/L	.	.	8en/L	.	8g|/L	.	2ryy	2ryy	2ryy	16bb-\LL	.	2ryy	2ryy	2g/	.	2eeX\	.
.	.	.	.	.	.	.	.	.	.	16gg\JJ	.	.	.	.	.	.	.
*	*	*	*	*	*	*	*	*	*	*Xtuplet	*	*	*	*	*	*	*
8C/	.	.	8en/	.	8g|/	.	.	.	.	24gg\LL	.	.	.	.	.	.	.
.	.	.	.	.	.	.	.	.	.	24ff\	.	.	.	.	.	.	.
.	.	.	.	.	.	.	.	.	.	24gg\JJ	.	.	.	.	.	.	.
8C/	.	.	8en/	.	8g|/	.	.	.	.	24een\LL	.	.	.	.	.	.	.
.	.	.	.	.	.	.	.	.	.	24dd\	.	.	.	.	.	.	.
.	.	.	.	.	.	.	.	.	.	24ee\JJ	.	.	.	.	.	.	.
8C/J	.	.	8en/J	.	8g|/J	.	.	.	.	24cc\LL	.	.	.	.	.	.	.
.	.	.	.	.	.	.	.	.	.	24dd\	.	.	.	.	.	.	.
.	.	.	.	.	.	.	.	.	.	24ee\JJ	.	.	.	.	.	.	.
=33	=33	=33	=33	=33	=33	=33	=33	=33	=33	=33	=33	=33	=33	=33	=33	=33	=33
!	!	!	!	!	!LO:TX:t=P:problem:||||	!	!	!	!	!	!	!	!	!	!	!	!
8F\L	.	.	8c/L	.	8a|/L	.	2ryy	2ryy	2ryy	16ff\LL	.	2ryy	2ryy	2an/	.	2ff\	.
.	.	.	.	.	.	.	.	.	.	16aa\J	.	.	.	.	.	.	.
8F\	.	.	8c/	.	8a|/	.	.	.	.	8aa\J	.	.	.	.	.	.	.
8F\	.	.	8c/	.	8a|/	.	.	.	.	16r	.	.	.	.	.	.	.
.	.	.	.	.	.	.	.	.	.	32cc\LLL	.	.	.	.	.	.	.
.	.	.	.	.	.	.	.	.	.	32dd\JJJ	.	.	.	.	.	.	.
8F\J	.	.	8c/J	.	8a|/J	.	.	.	.	32een\LLL	.	.	.	.	.	.	.
.	.	.	.	.	.	.	.	.	.	32ff\	.	.	.	.	.	.	.
.	.	.	.	.	.	.	.	.	.	32gg\	.	.	.	.	.	.	.
.	.	.	.	.	.	.	.	.	.	32aa\JJJ	.	.	.	.	.	.	.
=34	=34	=34	=34	=34	=34	=34	=34	=34	=34	=34	=34	=34	=34	=34	=34	=34	=34
!	!	!	!LO:TX:t=P:problem:LO:SIC:v:s=2en/	!	!LO:TX:t=P:problem:||||	!	!	!	!	!	!	!	!	!	!	!	!
8C/L	.	.	8e-/L	.	8g|/L	.	2ryy	2ryy	2ryy	16bb-\LL	.	2ryy	2ryy	2g/	.	2eeX\	.
.	.	.	.	.	.	.	.	.	.	16gg\JJ	.	.	.	.	.	.	.
8C/	.	.	8e-/	.	8g|/	.	.	.	.	24gg\LL	.	.	.	.	.	.	.
.	.	.	.	.	.	.	.	.	.	24ff\	.	.	.	.	.	.	.
.	.	.	.	.	.	.	.	.	.	24gg\JJ	.	.	.	.	.	.	.
!	!	!	!	!	!	!	!	!	!	!LO:LB:g=original	!	!	!	!	!	!	!
8C/	.	.	8e-/	.	8g|/	.	.	.	.	24een\LL	.	.	.	.	.	.	.
.	.	.	.	.	.	.	.	.	.	24dd\	.	.	.	.	.	.	.
.	.	.	.	.	.	.	.	.	.	24ee\JJ	.	.	.	.	.	.	.
8C/J	.	.	8e-/J	.	8g|/J	.	.	.	.	24cc\LL	.	.	.	.	.	.	.
.	.	.	.	.	.	.	.	.	.	24dd\	.	.	.	.	.	.	.
.	.	.	.	.	.	.	.	.	.	24ee\JJ	.	.	.	.	.	.	.
*	*	*	*	*	*Xtremolo	*	*	*	*	*	*	*	*	*	*	*	*
!	!	!	!	!	!LO:LB:g=original	!	!	!	!	!	!	!	!	!	!	!	!
=35	=35	=35	=35	=35	=35	=35	=35	=35	=35	=35	=35	=35	=35	=35	=35	=35	=35
8F\L	.	.	8a/L	.	16a\LL	.	2ryy	2ryy	2ryy	16ff\LL	-cto-	2ryy	2ryy	4an/	.	4ff\	.
.	.	.	.	.	16cc\JJ	.	.	.	.	16cc\JJ	.	.	.	.	.	.	.
8F\	.	.	8a/	.	4cc\	.	.	.	.	4cc\	-rum	.	.	.	.	.	.
8F\	.	.	8a/	.	.	.	.	.	.	.	.	.	.	4r	.	4r	.
8F\J	.	.	8a/J	.	8cc#X\	.	.	.	.	8cc#X\	ex	.	.	.	.	.	.
=36	=36	=36	=36	=36	=36	=36	=36	=36	=36	=36	=36	=36	=36	=36	=36	=36	=36
!	!	!	!	!	!	!	!	!	!	!	!	!	!	!LO:TX:a:t=4.	!	!LO:TX:a:t=4.	!
!	!	!	!	!	!	!	!	!	!	!	!	!	!	!LO:N:vis=00	!	!LO:N:vis=00	!
8En\L	.	.	8g/L	.	32dd\LLL	.	2ryy	2ryy	2ryy	32dd\LLL	u-	2ryy	2ryy	0r	.	0r	.
.	.	.	.	.	32cc\	.	.	.	.	32cc\	.	.	.	.	.	.	.
.	.	.	.	.	32dd\	.	.	.	.	32dd\	.	.	.	.	.	.	.
.	.	.	.	.	32ee-\JJJ	.	.	.	.	32ee-\JJJ	.	.	.	.	.	.	.
8En\	.	.	8g/	.	4dd\	.	.	.	.	4dd\	-te-	.	.	.	.	.	.
8En\	.	.	8g/	.	.	.	.	.	.	.	.	.	.	.	.	.	.
8En\J	.	.	8g/J	.	(16cc\LL	.	.	.	.	16cc\LL	-ro	.	.	.	.	.	.
.	.	.	.	.	16b-\JJ)	.	.	.	.	16b-\JJ	.	.	.	.	.	.	.
=37	=37	=37	=37	=37	=37	=37	=37	=37	=37	=37	=37	=37	=37	=37	=37	=37	=37
8F\L	.	.	8a/L	.	(32b-\LLL	.	2ryy	2ryy	2ryy	32b-\LLL	an-	2ryy	2ryy	.	.	.	.
.	.	.	.	.	32a\	.	.	.	.	32a\	.	.	.	.	.	.	.
.	.	.	.	.	32dd\	.	.	.	.	32dd\	.	.	.	.	.	.	.
.	.	.	.	.	32cc\JJJ)	.	.	.	.	32cc\JJJ	.	.	.	.	.	.	.
8F\	.	.	8a/	.	8cc\	.	.	.	.	8cc\	-te	.	.	.	.	.	.
8F\	.	.	8a/	.	16r	.	.	.	.	16r	.	.	.	.	.	.	.
.	.	.	.	.	16cc\LL	.	.	.	.	16cc\LL	lu-	.	.	.	.	.	.
8F\J	.	.	8a/J	.	16aa\	.	.	.	.	16aa\JJ	.	.	.	.	.	.	.
!	!	!	!	!	!LO:SIC:v:s=16ff\JJ	!	!	!	!	!	!	!	!	!	!	!	!
.	.	.	.	.	16gg\JJ	.	.	.	.	16ff\	-ci-	.	.	.	.	.	.
!	!	!	!	!	!	!	!	!	!	!LO:LB:g=original	!	!	!	!	!	!	!
*Xtremolo	*	*	*	*	*	*	*	*	*	*	*	*	*	*	*	*	*
=38	=38	=38	=38	=38	=38	=38	=38	=38	=38	=38	=38	=38	=38	=38	=38	=38	=38
8C/L	.	.	8g/L	.	32een\LLL	.	2ryy	2ryy	2ryy	32een\LLL	-fe-	2ryy	2ryy	.	.	.	.
.	.	.	.	.	32ff\	.	.	.	.	32ff\	.	.	.	.	.	.	.
.	.	.	.	.	32gg\	.	.	.	.	32gg\	.	.	.	.	.	.	.
.	.	.	.	.	32ff\JJJ	.	.	.	.	32ff\JJJ	.	.	.	.	.	.	.
8C/	.	.	8g/	.	8ee\	.	.	.	.	8ee\	-rum	.	.	.	.	.	.
8En/	.	.	8g/	.	16r	.	.	.	.	16r	.	.	.	.	.	.	.
.	.	.	.	.	32gg\LLL	.	.	.	.	32gg\LLL	ge-	.	.	.	.	.	.
.	.	.	.	.	32ff\JJJ	.	.	.	.	32ff\JJJ	.	.	.	.	.	.	.
8E/J	.	.	8g/J	.	32een\LLL	.	.	.	.	32ee\LLL	.	.	.	.	.	.	.
.	.	.	.	.	32dd\	.	.	.	.	32dd\	.	.	.	.	.	.	.
.	.	.	.	.	32cc\	.	.	.	.	32cc\	.	.	.	.	.	.	.
.	.	.	.	.	32b-\JJJ	.	.	.	.	32b-\JJJ	.	.	.	.	.	.	.
!	!	!	!	!	!LO:LB:g=original	!	!	!	!	!	!	!	!	!	!	!	!
*	*	*	*Xtremolo	*	*custos:cc	*	*	*	*	*	*	*	*	*	*	*	*
=39	=39	=39	=39	=39	=39	=39	=39	=39	=39	=39	=39	=39	=39	=39	=39	=39	=39
*	*	*	*Xtuplet	*	*tuplet	*	*	*	*	*	*	*	*	*	*	*	*
!LO:TX:a:t=P:problem:mixed beam	!	!	!	!	!LO:TUP:a:problem:klamra łukowa	!	!	!	!	!	!	!	!	!	!	!	!
8F\L	.	.	8a\L	.	24a\LL	.	2ryy	2ryy	2ryy	24a\LL	.	2ryy	2ryy	.	.	.	.
.	.	.	.	.	24cc\	.	.	.	.	24cc\	.	.	.	.	.	.	.
!	!	!	!	!	!LO:SIC:v:s=24ff\JJ	!	!	!	!	!	!	!	!	!	!	!	!
.	.	.	.	.	24ee-\JJ	.	.	.	.	24ff\JJ	.	.	.	.	.	.	.
!	!	!	!LO:TUP:a:problem:klamra łukowa	!	!LO:TUP:a:problem:klamra łukowa	!	!	!	!	!	!	!	!	!	!	!	!
8B-\	.	.	24dd\L	.	24bb-\LL	.	.	.	.	24bb-\LL	.	.	.	.	.	.	.
.	.	.	24cc\	.	24aa\	.	.	.	.	24aa\	.	.	.	.	.	.	.
.	.	.	24b-\JJ	.	24gg\JJ	.	.	.	.	24gg\JJ	.	.	.	.	.	.	.
8c\	.	.	8a/L	.	8ff\L	.	.	.	.	8ff\	-nu-	.	.	.	.	.	.
!	!	!LO:DY:t=f&colon;	!	!LO:DY:t=f&colon;	!	!	!	!	!	!	!	!	!	!	!	!	!
8C/J	.	f	8g/J	f	8een\J	.	.	.	.	8een\	-i	.	.	.	.	.	.
!	!	!	!LO:LB:g=original	!	!	!	!	!	!	!	!	!	!	!	!	!	!
=40	=40	=40	=40	=40	=40	=40	=40	=40	=40	=40	=40	=40	=40	=40	=40	=40	=40
*tremolo	*	*	*	*	*	*	*	*	*	*	*	*	*	*	*	*	*
!	!	!	!	!LO:DY:t=f&colon;	!	!	!	!	!	!	!	!	!	!	!	!	!
8F\L	.	.	(16f/LL	f	(16ff\LL	.	2ryy	2ryy	2ryy	4ff\	te	2ryy	2ryy	2an/	.	2ff\	f
.	.	.	16c/J)	.	16cc\J)	.	.	.	.	.	.	.	.	.	.	.	.
8F\	.	.	8c/J	.	8cc|\J	.	.	.	.	.	.	.	.	.	.	.	.
8F\	.	.	16r	.	16r	.	.	.	.	4r	.	.	.	.	.	.	.
.	.	.	(16c/LL	.	(16cc\LL	.	.	.	.	.	.	.	.	.	.	.	.
8F\J	.	.	16f/	.	16ff\	.	.	.	.	.	.	.	.	.	.	.	.
.	.	.	16a/JJ)	.	16aa\JJ)	.	.	.	.	.	.	.	.	.	.	.	.
=41	=41	=41	=41	=41	=41	=41	=41	=41	=41	=41	=41	=41	=41	=41	=41	=41	=41
!	!	!	!	!	!	!	!	!	!	!LO:TX:b:t=7	!	!	!	!	!	!	!
!	!	!	!	!	!	!	!	!	!	!LO:TX:a:t=7	!	!	!	!	!	!	!
!	!	!	!	!	!	!	!	!	!	!LO:N:vis=00	!	!	!	!	!	!	!
8C/L	x n	.	(16g/LL	.	(16gg\LL	.	2ryy	2ryy	2ryy	0r	.	2ryy	2ryy	2g/	.	2eeX\	.
!	!	!	!	!	!LO:SIC:v:s=16een\)	!	!	!	!	!	!	!	!	!	!	!	!
.	.	.	16en/	.	16ee-\)	.	.	.	.	.	.	.	.	.	.	.	.
8C/	.	.	16b-/	.	(16bb-\	.	.	.	.	.	.	.	.	.	.	.	.
.	.	.	16g/JJ)	.	16gg\JJ)	.	.	.	.	.	.	.	.	.	.	.	.
8C/	.	.	16f/LL	.	16ff\LL	.	.	.	.	.	.	.	.	.	.	.	.
!	!	!	!	!	!LO:SIC:v:s=16ee\	!	!	!	!	!	!	!	!	!	!	!	!
.	.	.	16e/	.	16ee-\	.	.	.	.	.	.	.	.	.	.	.	.
8C/J	.	.	16d/	.	16dd\	.	.	.	.	.	.	.	.	.	.	.	.
!	!	!	!	!	!LO:SIC:v:s=16ee\JJ	!	!	!	!	!	!	!	!	!	!	!	!
.	.	.	16e/JJ	.	16ee-\JJ	.	.	.	.	.	.	.	.	.	.	.	.
=42	=42	=42	=42	=42	=42	=42	=42	=42	=42	=42	=42	=42	=42	=42	=42	=42	=42
8F\L	.	.	(16f/LL	.	(16ff\LL	.	2ryy	2ryy	2ryy	.	.	2ryy	2ryy	2an/	.	2ff\	.
.	.	.	16c/J)	.	16cc\J)	.	.	.	.	.	.	.	.	.	.	.	.
8F\	.	.	8c/J	.	8cc|\J	.	.	.	.	.	.	.	.	.	.	.	.
8F\	.	.	16r	.	16r	.	.	.	.	.	.	.	.	.	.	.	.
.	.	.	(16c/LL	.	(16cc\LL	.	.	.	.	.	.	.	.	.	.	.	.
8F\J	.	.	16f/	.	16ff\	.	.	.	.	.	.	.	.	.	.	.	.
.	.	.	16a/JJ)	.	16aa\JJ)	.	.	.	.	.	.	.	.	.	.	.	.
=43	=43	=43	=43	=43	=43	=43	=43	=43	=43	=43	=43	=43	=43	=43	=43	=43	=43
8C/L	.	.	(16g/LL	.	16gg\LL	.	2ryy	2ryy	2ryy	.	.	2ryy	2ryy	2g/	.	2eeX\	.
.	.	.	16en/	.	16een\	.	.	.	.	.	.	.	.	.	.	.	.
8C/	.	.	16b-/	.	16bb-\	.	.	.	.	.	.	.	.	.	.	.	.
.	.	.	16g/JJ)	.	16gg\JJ	.	.	.	.	.	.	.	.	.	.	.	.
8C/	.	.	(16f/LL	.	16ff\LL	.	.	.	.	.	.	.	.	.	.	.	.
.	.	.	16e/	.	16ee\	.	.	.	.	.	.	.	.	.	.	.	.
!LO:TX:b:t=%	!	!	!	!	!	!	!	!	!	!	!	!	!	!	!	!	!
8C/J	.	.	16d/	.	16dd\	.	.	.	.	.	.	.	.	.	.	.	.
.	.	.	16e/JJ)	.	16ee\JJ	.	.	.	.	.	.	.	.	.	.	.	.
*Xtremolo	*	*	*	*	*	*	*	*	*	*	*	*	*	*	*	*	*
!LO:PB:g=original	!	!	!	!	!LO:PB:g=original	!	!	!	!	!	!	!	!	!	!	!	!
=44	=44	=44	=44	=44	=44	=44	=44	=44	=44	=44	=44	=44	=44	=44	=44	=44	=44
8F\L	.	.	(16f/LL	.	(16ff\LL	.	2ryy	2ryy	2ryy	.	.	2ryy	2ryy	4an/	.	4ff\	.
.	.	.	16c/J)	.	16cc\J)	.	.	.	.	.	.	.	.	.	.	.	.
8F\	.	.	8c/J	.	8cc|\J	.	.	.	.	.	.	.	.	.	.	.	.
8A\	x 5	.	16r	.	16r	.	.	.	.	.	.	.	.	4r	.	4r	.
.	.	.	(16c/LL	.	(16cc\LL	.	.	.	.	.	.	.	.	.	.	.	.
8A\J	x 6	.	16d/	.	16dd\	.	.	.	.	.	.	.	.	.	.	.	.
.	.	.	16e-X/JJ)	.	16ee-X\JJ)	.	.	.	.	.	.	.	.	.	.	.	.
=45	=45	=45	=45	=45	=45	=45	=45	=45	=45	=45	=45	=45	=45	=45	=45	=45	=45
!	!	!	!	!	!	!	!	!	!	!LO:N:vis=0	!	!	!	!LO:TX:a:t=1.	!	!LO:TX:a:t=1.	!
8B-\L	.	.	(16e-/LL	.	(16ee-\LL	.	2ryy	2ryy	2ryy	1r	.	2ryy	2ryy	2r	.	2r	.
.	.	.	16d/	.	16dd\	.	.	.	.	.	.	.	.	.	.	.	.
8B-\	.	.	16c/	.	16cc\	.	.	.	.	.	.	.	.	.	.	.	.
.	.	.	16d/JJ)	.	16dd\JJ)	.	.	.	.	.	.	.	.	.	.	.	.
!	!	!	!LO:LB:g=original	!	!	!	!	!	!	!	!	!	!	!	!	!	!
8A\	.	.	16c/LL	.	(16cc\LL	.	.	.	.	.	.	.	.	.	.	.	.
.	.	.	(16f/	.	16ff\	.	.	.	.	.	.	.	.	.	.	.	.
8A\J	.	.	16en/	.	16een\)	.	.	.	.	.	.	.	.	.	.	.	.
.	.	.	16f/JJ)	.	16ff\JJ	.	.	.	.	.	.	.	.	.	.	.	.
=46	=46	=46	=46	=46	=46	=46	=46	=46	=46	=46	=46	=46	=46	=46	=46	=46	=46
!LO:TX:a:t=P:problem:mixed beam	!	!	!LO:SIC:v:s=16e/LL	!	!LO:SIC:v:s=16een\LL	!	!	!	!	!	!	!	!	!	!	!	!
8B-\L	.	.	16e-/LL	.	16ee-\LL	.	2ryy	2ryy	2ryy	.	.	2ryy	2ryy	8r	.	8r	.
.	.	.	(16f/	.	(16ff\	.	.	.	.	.	.	.	.	.	.	.	.
8B-\	x 6	.	16b-/	.	16dd\	.	.	.	.	.	.	.	.	8b-/L	.	8gg\L	.
.	.	.	16g/JJ)	.	16b-\JJ)	.	.	.	.	.	.	.	.	.	.	.	.
8c\	x 4	.	8f/L	.	8a/L	.	.	.	.	.	.	.	.	8an/	.	8ff\	.
!	!	!	!LO:SIC:v:s=8en/J	!	!	!	!	!	!	!	!	!	!	!	!	!	!
8C/J	x 3	.	8e-/J	.	8g/J	.	.	.	.	.	.	.	.	8g/J	.	8eeX\J	.
=47	=47	=47	=47	=47	=47	=47	=47	=47	=47	=47	=47	=47	=47	=47	=47	=47	=47
!LO:TX:a:t=P:problem:mixed beam	!	!	!	!	!	!	!	!	!	!LO:TX:t=P:problem:wykreślone takty	!	!	!	!	!	!	!
8F\L	.	.	8f/L	.	8a/	.	2ryy	2ryy	2ryy	2r	.	2ryy	2ryy	8a/L	.	8ff\L	.
8FF/	.	.	(32a/LL	.	(32ff\LLL	.	.	.	.	.	.	.	.	8a/	.	8ff\	.
.	.	.	32b-/	.	32gg\	.	.	.	.	.	.	.	.	.	.	.	.
.	.	.	32cc/	.	32aa\	.	.	.	.	.	.	.	.	.	.	.	.
.	.	.	32b-/JJJ)	.	32gg\JJJ)	.	.	.	.	.	.	.	.	.	.	.	.
8F\J	.	.	8a/	.	8ff\	.	.	.	.	.	.	.	.	8a/J	.	8ff\J	.
8r	.	.	8r	.	8r	.	.	.	.	.	.	.	.	8r	.	8r	.
!	!	!	!	!	!	!	!	!	!	!LO:LB:g=original	!	!	!	!	!	!LO:LB:g=original	!
=48	=48	=48	=48	=48	=48	=48	=48	=48	=48	=48	=48	=48	=48	=48	=48	=48	=48
!	!	!	!	!	!	!	!	!	!	!	!	!	!	!LO:TX:a:t=7.	!	!LO:TX:a:t=7.	!
!	!	!	!	!LO:DY:rj	!	!	!	!	!	!	!	!	!	!LO:N:vis=00	!	!LO:N:vis=00	!
8r	.	.	8r	p	8r	.	2ryy	2ryy	2ryy	4.ff\	Ju-	2ryy	2ryy	0r	.	0r	.
!	!	!LO:DY:rj:t=p&colon;	!	!	!	!LO:DY:rj	!	!	!	!	!	!	!	!	!	!	!
8F\L	.	p	8c/L	.	8a/L	p	.	.	.	.	.	.	.	.	.	.	.
8A\	x 6	.	8c/	.	8a/	.	.	.	.	.	.	.	.	.	.	.	.
8F\J	.	.	8c/J	.	8a/J	.	.	.	.	32ryy	.	.	.	.	.	.	.
!	!	!	!	!	!	!	!	!	!	!LO:N:vis=32	!	!	!	!	!	!	!
.	.	.	.	.	.	.	.	.	.	64een\LLLL	.	.	.	.	.	.	.
!	!	!	!	!	!	!	!	!	!	!LO:N:vis=32	!	!	!	!	!	!	!
.	.	.	.	.	.	.	.	.	.	64ff\JJJJ	.	.	.	.	.	.	.
!	!	!	!	!	!	!	!	!	!	!LO:N:vis=32	!	!	!	!	!	!	!
.	.	.	.	.	.	.	.	.	.	64gg\LLLL	.	.	.	.	.	.	.
!	!	!	!	!	!	!	!	!	!	!LO:N:vis=32	!	!	!	!	!	!	!
.	.	.	.	.	.	.	.	.	.	64ff\	.	.	.	.	.	.	.
!	!	!	!	!	!	!	!	!	!	!LO:N:vis=32	!	!	!	!	!	!	!
.	.	.	.	.	.	.	.	.	.	64ee\	.	.	.	.	.	.	.
!	!	!	!	!	!	!	!	!	!	!LO:N:vis=32	!	!	!	!	!	!	!
.	.	.	.	.	.	.	.	.	.	64ff\JJJJ	.	.	.	.	.	.	.
!	!	!	!	!	!LO:LB:g=original	!	!	!	!	!	!	!	!	!	!	!	!
=49	=49	=49	=49	=49	=49	=49	=49	=49	=49	=49	=49	=49	=49	=49	=49	=49	=49
8r	.	.	8r	.	8r	.	2ryy	2ryy	2ryy	32ff\LLL	-ra-	2ryy	2ryy	.	.	.	.
!	!	!	!	!	!	!	!	!	!	!LO:SIC:v:s=32een\	!	!	!	!	!	!	!
.	.	.	.	.	.	.	.	.	.	32ee-\	.	.	.	.	.	.	.
.	.	.	.	.	.	.	.	.	.	32aa\	.	.	.	.	.	.	.
.	.	.	.	.	.	.	.	.	.	32gg\JJJ	.	.	.	.	.	.	.
8C/L	x n	.	8en/L	.	8g/L	.	.	.	.	4gg\	-vit	.	.	.	.	.	.
8C/	.	.	8e/	.	8g/	.	.	.	.	.	.	.	.	.	.	.	.
!LO:SIC:v:s=8En/J	!	!	!	!	!	!	!	!	!	!LO:SIC:v:s=16ee\LL	!	!	!	!	!	!	!
8E-/J	x 6	.	8e/J	.	8g/J	.	.	.	.	16ee-\LL	iu-	.	.	.	.	.	.
.	.	.	.	.	.	.	.	.	.	16cc\JJ	.	.	.	.	.	.	.
=50	=50	=50	=50	=50	=50	=50	=50	=50	=50	=50	=50	=50	=50	=50	=50	=50	=50
!LO:TX:a:t=P:problem:mixed beam	!	!	!	!	!	!	!	!	!	!	!	!	!	!	!	!	!
8F\L	.	.	8f/L	.	8a/L	.	2ryy	2ryy	2ryy	32dd\LLL	-ra-	2ryy	2ryy	.	.	.	.
.	.	.	.	.	.	.	.	.	.	32ff\	.	.	.	.	.	.	.
.	.	.	.	.	.	.	.	.	.	32een\	.	.	.	.	.	.	.
.	.	.	.	.	.	.	.	.	.	32ff\JJJ	.	.	.	.	.	.	.
8B-\	x 6	.	8g/	.	8b-/	.	.	.	.	32gg\LLL	.	.	.	.	.	.	.
.	.	.	.	.	.	.	.	.	.	32ff\JJJ	.	.	.	.	.	.	.
!	!	!	!	!	!	!	!	!	!	!LO:SIC:v:l:s==-vit	!	!	!	!	!	!	!
.	.	.	.	.	.	.	.	.	.	32een\LLL	-wit	.	.	.	.	.	.
.	.	.	.	.	.	.	.	.	.	32dd\JJJ	.	.	.	.	.	.	.
8c\	x 4	.	8f/	.	8a/	.	.	.	.	8cc\	Do-	.	.	.	.	.	.
8C/J	x 3	.	8en/J	.	8g/J	.	.	.	.	8b-\	-mi-	.	.	.	.	.	.
=51	=51	=51	=51	=51	=51	=51	=51	=51	=51	=51	=51	=51	=51	=51	=51	=51	=51
!LO:TX:a:t=P:problem:mixed beam	!	!	!	!	!	!	!	!	!	!	!	!	!	!	!	!	!
8F\L	.	.	8c/L	.	8a/L	.	2ryy	2ryy	2ryy	4a\	-nus	2ryy	2ryy	.	.	.	.
8FF/	.	.	8c/	.	8a/	.	.	.	.	.	.	.	.	.	.	.	.
8F\J	.	.	8c/J	.	8a/J	.	.	.	.	8r	.	.	.	.	.	.	.
8r	.	.	8r	.	8r	.	.	.	.	16ff\	et	.	.	.	.	.	.
.	.	.	.	.	.	.	.	.	.	16ff\	non	.	.	.	.	.	.
!	!	!	!	!	!	!	!	!	!	!LO:LB:g=original	!	!	!	!	!	!	!
=52	=52	=52	=52	=52	=52	=52	=52	=52	=52	=52	=52	=52	=52	=52	=52	=52	=52
!	!	!	!	!LO:DY:rj	!	!	!	!	!	!LO:SIC:v:l:s=poe-	!	!	!	!LO:N:vis=0	!	!LO:N:vis=0	!
8r	.	.	8r	p	8r	.	2ryy	2ryy	2ryy	32een\LLL	pe-	2ryy	2ryy	1r	.	1r	.
.	.	.	.	.	.	.	.	.	.	32dd\	.	.	.	.	.	.	.
.	.	.	.	.	.	.	.	.	.	32ee\	.	.	.	.	.	.	.
.	.	.	.	.	.	.	.	.	.	32ff\JJJ	.	.	.	.	.	.	.
!LO:TX:a:t=P:problem:mixed beam	!	!	!	!	!	!	!	!	!	!	!	!	!	!	!	!	!
8c\L	x n	.	8en/L	.	8g/L	.	.	.	.	4een\	.	.	.	.	.	.	.
8C/	.	.	8e/	.	8g/	.	.	.	.	.	.	.	.	.	.	.	.
8c\J	.	.	8e/J	.	8g/J	.	.	.	.	16gg\LL	-ni-	.	.	.	.	.	.
.	.	.	.	.	.	.	.	.	.	16ee\JJ	.	.	.	.	.	.	.
!LO:LB:g=original	!	!	!LO:LB:g=original	!	!	!	!	!	!	!	!	!	!	!	!	!	!
=53	=53	=53	=53	=53	=53	=53	=53	=53	=53	=53	=53	=53	=53	=53	=53	=53	=53
8r	.	.	8c/L	.	8a/L	.	2ryy	2ryy	2ryy	16ff\LL	-te-	2ryy	2ryy	.	.	.	.
.	.	.	.	.	.	.	.	.	.	16aa\JJ	.	.	.	.	.	.	.
!LO:TX:a:t=P:problem:mixed beam	!	!	!	!	!	!	!	!	!	!	!	!	!	!	!	!	!
8F\L	.	.	8c/J	.	8a/J	.	.	.	.	8cc\	-bit	.	.	.	.	.	.
8FF/	.	.	8r	.	8r	.	.	.	.	8r	.	.	.	.	.	.	.
!	!	!	!	!	!	!	!	!	!	!LO:SIC:v:l:s=poe-	!	!	!	!	!	!	!
!	!	!	!	!	!	!	!	!	!	!LO:N:vis=8	!	!	!	!	!	!	!
8F\J	.	.	8a/	.	8cc\	.	.	.	.	16cc\	pe-	.	.	.	.	.	.
!	!	!	!	!	!	!	!	!	!	!LO:N:vis=8	!	!	!	!	!	!	!
.	.	.	.	.	.	.	.	.	.	16cc\	-ni-	.	.	.	.	.	.
=54	=54	=54	=54	=54	=54	=54	=54	=54	=54	=54	=54	=54	=54	=54	=54	=54	=54
8F\L	.	.	(16a/LL	.	(16cc\LL	.	2ryy	2ryy	2ryy	16cc\LL	-te-	2ryy	2ryy	2r	.	2r	.
.	.	.	16f/)	.	16a\)	.	.	.	.	16a\	.	.	.	.	.	.	.
8F\	.	.	(16b-/	.	(16dd\	.	.	.	.	16dd\	.	.	.	.	.	.	.
.	.	.	16a/JJ)	.	16cc\JJ)	.	.	.	.	16cc\JJ	.	.	.	.	.	.	.
8B-\	x 6	.	(16a/LL	.	(16cc\LL	.	.	.	.	16cc\LL	.	.	.	.	.	.	.
.	.	.	16g/	.	16b-\)	.	.	.	.	16b-\JJ	.	.	.	.	.	.	.
8Bn\J	x 5	.	16g/	.	(16b-\	.	.	.	.	16b-\LL	-bit	.	.	.	.	.	.
.	.	.	16f/JJ)	.	16a\JJ)	.	.	.	.	16a\JJ	.	.	.	.	.	.	.
=55	=55	=55	=55	=55	=55	=55	=55	=55	=55	=55	=55	=55	=55	=55	=55	=55	=55
!LO:TX:a:t=P:problem:mixed beam	!	!	!	!	!	!	!	!	!	!	!	!	!	!	!	!LO:TX:a:i:t=Solo.	!
8c\L	x 4	.	8f/L	.	8a/L	.	2ryy	2ryy	2ryy	8a\	e-	2ryy	2ryy	8r	.	8r	.
8C/J	x n	.	8en/J	.	8g/J	.	.	.	.	8g\	-um	.	.	(16cc\LL	.	16eeX\LL	.
.	.	.	.	.	.	.	.	.	.	.	.	.	.	16eeX\JJ)	.	16gg\JJ	.
4r	.	.	4r	.	4r	.	.	.	.	4r	.	.	.	(16ee\LL	.	16gg\LL	.
.	.	.	.	.	.	.	.	.	.	.	.	.	.	16dd\J)	.	16ff\J	.
.	.	.	.	.	.	.	.	.	.	.	.	.	.	8cc\J	.	8ee\J	.
!	!	!	!	!	!LO:LB:g=original	!	!	!	!	!	!	!	!	!LO:LB:g=original	!	!	!
=56	=56	=56	=56	=56	=56	=56	=56	=56	=56	=56	=56	=56	=56	=56	=56	=56	=56
*	*	*	*	*	*	*	*	*	*	*^	*	*	*	*	*	*	*
!	!	!	!	!	!	!	!	!	!	!	!	!	!	!	!LO:TX:a:t=1.	!	!LO:TX:a:t=1.	!
8G\L	x 7	.	8B-/L	.	(16gg\LL	.	2ryy	2ryy	2ryy	16gg\LL	4ryy	tu	2ryy	2ryy	2r	.	2r	.
.	.	.	.	.	16ff\JJ)	.	.	.	.	16ff\JJ	.	.	.	.	.	.	.	.
8A\	.	.	8c/	.	4ff\	.	.	.	.	4ff\	.	es	.	.	.	.	.	.
8Bn\	.	.	8d/	.	.	.	.	.	.	.	8ryy	.	.	.	.	.	.	.
8G\J	.	.	8B-/J	.	(16ee-X\LL	.	.	.	.	16ee-X/LL	16ee-X\LL	Sa-	.	.	.	.	.	.
.	.	.	.	.	16dd\JJ)	.	.	.	.	16dd/JJ	16dd\JJ	.	.	.	.	.	.	.
*	*	*	*	*	*	*	*	*	*	*v	*v	*	*	*	*	*	*	*
!	!	!	!	!	!	!	!	!	!	!LO:LB:g=original	!	!	!	!	!	!	!
=57	=57	=57	=57	=57	=57	=57	=57	=57	=57	=57	=57	=57	=57	=57	=57	=57	=57
!LO:TX:a:t=P:problem:mixed beam	!	!	!	!	!	!	!	!	!	!	!	!	!	!	!	!	!
8c\L	x -	.	(16e-X/LL	.	16cc\LL	.	2ryy	2ryy	2ryy	16cc\LL	-cer-	2ryy	2ryy	8r	.	8r	.
.	.	.	16d/J)	.	16bn\JJ	.	.	.	.	16bn\JJ	.	.	.	.	.	.	.
8C/J	.	.	8e-/J	.	8cc\	.	.	.	.	8cc\	-dos	.	.	16cc\LL	.	16ee-\LL	.
.	.	.	.	.	.	.	.	.	.	.	.	.	.	16bX\JJ	.	16dd\JJ	.
!	!	!	!	!	!LO:N:vis=8	!	!	!	!	!	!	!	!	!	!	!	!
4r	.	.	4r	.	4r	.	.	.	.	4r	.	.	.	(16cc\LL	.	(16ee-\LL	.
.	.	.	.	.	.	.	.	.	.	.	.	.	.	16dd\)	.	16ff\	.
.	.	.	.	.	.	.	.	.	.	.	.	.	.	(16dd\	.	16ff\	.
!	!	!	!	!	!	!	!	!	!	!	!	!	!	!LO:SIC:v:s=16ee-\JJ)	!	!	!
.	.	.	.	.	.	.	.	.	.	.	.	.	.	16eeX\JJ)	.	16gg\JJ)	.
=58	=58	=58	=58	=58	=58	=58	=58	=58	=58	=58	=58	=58	=58	=58	=58	=58	=58
!	!	!	!	!	!	!	!	!	!	!	!	!	!	!LO:TX:a:t=1.	!	!LO:TX:a:t=1.	!
8F\L	x 7	.	8A/L	.	(16ff\LL	.	2ryy	2ryy	2ryy	16ff\LL	in	2ryy	2ryy	2r	.	2r	.
.	.	.	.	.	16ee-\JJ)	.	.	.	.	16ee-\JJ	.	.	.	.	.	.	.
!	!	!	!	!	!	!	!	!	!	!LO:SIC:v:l:s=ae-	!	!	!	!	!	!	!
8G\	.	.	8B-/	.	4ee-\	.	.	.	.	4ee-\	e-	.	.	.	.	.	.
8A\	.	.	8c/	.	.	.	.	.	.	.	.	.	.	.	.	.	.
8F\J	.	.	8A/J	.	(16dd\LL	.	.	.	.	16dd\LL	.	.	.	.	.	.	.
.	.	.	.	.	16cc\JJ)	.	.	.	.	16cc\JJ	.	.	.	.	.	.	.
=59	=59	=59	=59	=59	=59	=59	=59	=59	=59	=59	=59	=59	=59	=59	=59	=59	=59
!LO:TX:a:t=P:problem:mixed beam	!	!	!	!	!	!	!	!	!	!	!	!	!	!	!	!	!
8B-X\L	x 3	.	(16d/LL	.	(16b-X\LL	.	2ryy	2ryy	2ryy	16b-X\LL	-ter-	2ryy	2ryy	8r	.	8r	.
.	.	.	16c/J)	.	16a\J)	.	.	.	.	16a\JJ	.	.	.	.	.	.	.
8BB-/J	.	.	8d/J	.	8b-\J	.	.	.	.	8b-\	-num	.	.	16b-\LL	.	16dd\LL	.
.	.	.	.	.	.	.	.	.	.	.	.	.	.	16a\JJ	.	16cc\JJ	.
4r	.	.	4r	.	4r	.	.	.	.	4r	.	.	.	(16b-\LL	.	(16dd\LL	.
.	.	.	.	.	.	.	.	.	.	.	.	.	.	16cc\)	.	16ee-\)	.
.	.	.	.	.	.	.	.	.	.	.	.	.	.	(16cc\	.	(16ee-\	.
.	.	.	.	.	.	.	.	.	.	.	.	.	.	16dd\JJ)	.	16ff\JJ)	.
=60	=60	=60	=60	=60	=60	=60	=60	=60	=60	=60	=60	=60	=60	=60	=60	=60	=60
!	!	!	!	!	!	!	!	!	!	!	!	!	!	!LO:TX:a:t=2.	!	!LO:TX:a:t=2.	!
!	!	!	!	!	!	!	!	!	!	!	!	!	!	!LO:N:vis=0	!	!LO:N:vis=0	!
8r	.	.	8r	.	8.b-\L	.	2ryy	2ryy	2ryy	8.b-\L	Se-	2ryy	2ryy	1r	.	1r	.
8BB-/L	.	.	8d/L	.	.	.	.	.	.	.	.	.	.	.	.	.	.
.	.	.	.	.	16dd\Jk	.	.	.	.	16dd\Jk	.	.	.	.	.	.	.
8BB-/	.	.	8d/	.	16ff\LL	.	.	.	.	16ff\LL	-cun-	.	.	.	.	.	.
.	.	.	.	.	(16dd\	.	.	.	.	16dd\JJ	.	.	.	.	.	.	.
8D/J	x 6	.	8f/J	.	16cc\	.	.	.	.	16cc\LL	-dum	.	.	.	.	.	.
.	.	.	.	.	16b-\JJ)	.	.	.	.	16b-\JJ	.	.	.	.	.	.	.
=61	=61	=61	=61	=61	=61	=61	=61	=61	=61	=61	=61	=61	=61	=61	=61	=61	=61
8r	.	.	8r	.	8.a\L	.	2ryy	2ryy	2ryy	8.a\	or-	2ryy	2ryy	.	.	.	.
!	!	!	!LO:TX:a:t=P:problem:mixed beam	!	!	!	!	!	!	!	!	!	!	!	!	!	!
8F\L	.	.	8c/L	.	.	.	.	.	.	.	.	.	.	.	.	.	.
.	.	.	.	.	16cc\K	.	.	.	.	16cc\	-di-	.	.	.	.	.	.
8F\	.	.	8c/	.	8ff\J	.	.	.	.	8ff\	-nem	.	.	.	.	.	.
8A\J	x 6	.	8cc\J	.	16r	.	.	.	.	16r	.	.	.	.	.	.	.
.	.	.	.	.	16ee-X\	.	.	.	.	16ee-\	mel-	.	.	.	.	.	.
!	!	!	!LO:LB:g=original	!	!LO:LB:g=original	!	!	!	!	!LO:LB:g=original	!	!	!	!	!	!	!
=62	=62	=62	=62	=62	=62	=62	=62	=62	=62	=62	=62	=62	=62	=62	=62	=62	=62
!LO:TX:a:t=P:problem:mixed beam	!	!	!	!	!	!	!	!	!	!	!	!	!	!	!	!	!
8B-\L	.	.	16b-\LL	.	16dd\LL	.	2ryy	2ryy	2ryy	16dd\LL	.	2ryy	2ryy	8r	.	8r	.
.	.	.	16dd\JJ	.	16ff\JJ	.	.	.	.	16ff\JJ	.	.	.	.	.	.	.
!	!	!	!LO:TUP:a:problem:klamra łukowa	!	!LO:TUP:a:problem:klamra łukowa	!	!	!	!	!	!	!	!	!	!	!LO:TX:a:i:t=Solo.	!
8E-\	.	.	24ee-\LL	.	24gg\LL	.	.	.	.	24gg\LL	.	.	.	8cc\L	.	8ee-\L	.
.	.	.	24dd\	.	24ff\	.	.	.	.	24ff\	.	.	.	.	.	.	.
.	.	.	24cc\JJ	.	24ee-\JJ	.	.	.	.	24ee-\JJ	.	.	.	.	.	.	.
8F\	x 4	.	8b-\L	.	8dd\L	.	.	.	.	8dd\	-chi-	.	.	8b-\	.	8dd\	.
8FF/J	x 3	.	8a\J	.	8cc\J	.	.	.	.	8cc\	-se-	.	.	8a\J	.	8cc\J	.
!LO:LB:g=original	!	!	!	!	!	!	!	!	!	!	!	!	!	!	!	!	!
=63	=63	=63	=63	=63	=63	=63	=63	=63	=63	=63	=63	=63	=63	=63	=63	=63	=63
!LO:TX:a:t=P:problem:mixed beam	!	!	!	!	!	!	!	!	!	!	!	!	!	!	!	!	!
8BB-/L	.	.	4b-\	.	4b-\	.	2ryy	2ryy	2ryy	4b-\	-dech	2ryy	2ryy	8b-\L	.	8dd\L	.
8B-\J	.	.	.	.	.	.	.	.	.	.	.	.	.	(16dd\L	.	16ff\L	.
.	.	.	.	.	.	.	.	.	.	.	.	.	.	16ee-\JJ)	.	16gg\JJ	.
4r	.	.	4r	.	4r	.	.	.	.	4r	.	.	.	(16dd\LL	.	(16ff\LL	.
.	.	.	.	.	.	.	.	.	.	.	.	.	.	16cc\)	.	16ee-\)	.
.	.	.	.	.	.	.	.	.	.	.	.	.	.	(16b-\	.	16dd\	.
.	.	.	.	.	.	.	.	.	.	.	.	.	.	16cc\JJ)	.	16ee-'\JJ	.
=64	=64	=64	=64	=64	=64	=64	=64	=64	=64	=64	=64	=64	=64	=64	=64	=64	=64
8r	.	.	(16B-/LL	.	(16b-\LL	.	2ryy	2ryy	2ryy	16b-\LL	Do-	2ryy	2ryy	4b-\	.	4dd\	.
.	.	.	16d/JJ)	.	16dd\JJ)	.	.	.	.	16dd\JJ	.	.	.	.	.	.	.
8B-\L	.	.	4f/	.	4ff\	.	.	.	.	4ff\	.	.	.	.	.	.	.
8d\	.	.	.	.	.	.	.	.	.	.	.	.	.	4r	.	4r	.
8B-\J	.	.	(16d/LL	.	(16dd\LL	.	.	.	.	16dd\LL	.	.	.	.	.	.	.
.	.	.	16f/JJ)	.	16ff\JJ)	.	.	.	.	16ff\JJ	.	.	.	.	.	.	.
=65	=65	=65	=65	=65	=65	=65	=65	=65	=65	=65	=65	=65	=65	=65	=65	=65	=65
!	!	!	!	!	!	!	!	!	!	!	!	!	!	!LO:TX:a:t=2.	!	!LO:TX:a:t=2.	!
!	!	!	!	!	!	!	!	!	!	!	!	!	!	!LO:N:vis=0	!	!LO:N:vis=0	!
8r	.	.	(16f/LL	.	16ff\LL	.	2ryy	2ryy	2ryy	16ff\	-mi-	2ryy	2ryy	1r	.	1r	.
.	.	.	16e-/JJ)	.	16ee-\JJ	.	.	.	.	16ee-\	-nus	.	.	.	.	.	.
8c\L	.	.	4c/	.	4cc\	.	.	.	.	4cc\	.	.	.	.	.	.	.
8A\	.	.	.	.	.	.	.	.	.	.	.	.	.	.	.	.	.
8F\J	.	.	8e-/	.	8ee-\	.	.	.	.	8ee-\	a	.	.	.	.	.	.
=66	=66	=66	=66	=66	=66	=66	=66	=66	=66	=66	=66	=66	=66	=66	=66	=66	=66
!LO:TX:a:t=P:problem:mixed beam	!	!	!	!	!	!	!	!	!	!	!	!	!	!	!	!	!
.	.	.	.	.	16qqee-/	.	.	.	.	.	.	.	.	.	.	.	.
8B-\L	.	.	8f/L	.	8dd\L	.	2ryy	2ryy	2ryy	8dd\	dex-	2ryy	2ryy	.	.	.	.
8E-\	.	.	(16g/L	.	16ee-\L	.	.	.	.	16ee-\LL	-tris	.	.	.	.	.	.
.	.	.	16e-/JJ)	.	16cc\JJ	.	.	.	.	16cc\JJ	.	.	.	.	.	.	.
8F\	x 4	.	(16e-/LL	.	16cc\LL	.	.	.	.	16cc\LL	tu-	.	.	.	.	.	.
.	.	.	16d/	.	(16b-\	.	.	.	.	16b-\JJ	.	.	.	.	.	.	.
8FF/J	x 3	.	16d/	.	16b-\)	.	.	.	.	16b-\LL	-is	.	.	.	.	.	.
.	.	.	16c/JJ)	.	16a\JJ	.	.	.	.	16a\JJ	.	.	.	.	.	.	.
=67	=67	=67	=67	=67	=67	=67	=67	=67	=67	=67	=67	=67	=67	=67	=67	=67	=67
!LO:TX:a:t=P:problem:mixed beam	!	!	!	!	!	!	!	!	!	!	!	!	!	!	!	!	!LO:DY:t=p.
8BB-/L	.	.	8d/L	.	4b-\	.	2ryy	2ryy	2ryy	4b-\	.	2ryy	2ryy	2b-\	p	2dd\	p
8B-\	.	.	8d/J	.	.	.	.	.	.	.	.	.	.	.	.	.	.
8BB-/J	.	.	16r	.	16r	.	.	.	.	16r	.	.	.	.	.	.	.
!	!	!	!LO:TX:a:t=P:problem:mixed beam	!	!	!LO:DY:rj:t=for	!	!	!	!	!	!	!	!	!	!	!
.	.	.	16d/LL	.	(16b-\LL	f	.	.	.	16b-\LL	con-	.	.	.	.	.	.
8r	.	.	(16dd\	.	16ff\	.	.	.	.	16ff\	.	.	.	.	.	.	.
.	.	.	16b-\JJ)	.	16dd\JJ)	.	.	.	.	16dd\JJ	.	.	.	.	.	.	.
!	!	!	!	!	!LO:LB:g=original	!	!	!	!	!LO:LB:g=original	!	!	!	!	!	!	!
=68	=68	=68	=68	=68	=68	=68	=68	=68	=68	=68	=68	=68	=68	=68	=68	=68	=68
8r	.	.	(16b-\LL	.	16dd\LL	.	2ryy	2ryy	2ryy	16dd\LL	-fre-	2ryy	2ryy	2cc\	.	2ee-\	.
.	.	.	16a\J)	.	16cc\J	.	.	.	.	16cc\JJ	.	.	.	.	.	.	.
8F\L	.	.	8a\J	.	8cc\J	.	.	.	.	8cc\	-git	.	.	.	.	.	.
8F\	.	.	16r	.	16r	.	.	.	.	16r	.	.	.	.	.	.	.
.	.	.	(16ee-\LL	.	(16gg\LL	.	.	.	.	16gg\LL	in	.	.	.	.	.	.
8A\J	.	.	16dd\	.	16ff\	.	.	.	.	16ff\	.	.	.	.	.	.	.
.	.	.	16cc\JJ)	.	16ee-\JJ)	.	.	.	.	16ee-\JJ	.	.	.	.	.	.	.
=69	=69	=69	=69	=69	=69	=69	=69	=69	=69	=69	=69	=69	=69	=69	=69	=69	=69
8r	.	.	(16b-\LL	.	16dd\LL	.	2ryy	2ryy	2ryy	16dd\LL	di-	2ryy	2ryy	2dd\	.	2ff\	.
.	.	.	16cc\J)	.	16ee-\	.	.	.	.	16ee-\JJ	.	.	.	.	.	.	.
!LO:TX:a:t=P:problem:mixed beam	!	!	!	!	!	!	!	!	!	!	!	!	!	!	!	!	!
8B-\L	.	.	8dd'\J	.	16ff\JJ	.	.	.	.	8ff\	-e	.	.	.	.	.	.
.	.	.	.	.	16r	.	.	.	.	.	.	.	.	.	.	.	.
8BB-/	.	.	16r	.	16ff\LL	.	.	.	.	8r	.	.	.	.	.	.	.
.	.	.	16dd\LL	.	16ff\	.	.	.	.	.	.	.	.	.	.	.	.
8B-\J	.	.	16dd\	.	16ff\JJ	.	.	.	.	16ff\	i-	.	.	.	.	.	.
!	!	!	!	!	!	!	!	!	!	!LO:SIC:v:l:s=-rae	!	!	!	!	!	!	!
.	.	.	16dd\JJ	.	16r	.	.	.	.	16ff\	-re	.	.	.	.	.	.
!	!	!	!LO:LB:g=original	!	!	!	!	!	!	!	!	!	!	!	!	!	!
=70	=70	=70	=70	=70	=70	=70	=70	=70	=70	=70	=70	=70	=70	=70	=70	=70	=70
8r	.	.	(16dd\LL	.	(16ff\LL	.	2ryy	2ryy	2ryy	16ff\LL	su-	2ryy	2ryy	8r	.	8r	.
.	.	.	16b-\	.	16dd\	.	.	.	.	16dd\	.	.	.	.	.	.	.
8B-\L	.	.	16ee-\)	.	16gg\)	.	.	.	.	16gg\	.	.	.	8dd\	.	8ff\	.
.	.	.	16dd\JJ	.	16ff\JJ	.	.	.	.	16ff\JJ	.	.	.	.	.	.	.
8E-\	x 6	.	16dd\LL	.	16ff\LL	.	.	.	.	16ff\LL	.	.	.	(16dd\LL	.	(16ff\LL	.
.	.	.	16cc\	.	(16ee-\	.	.	.	.	16ee-\JJ	.	.	.	16cc\)	.	16ee-\)	.
!	!	!	!	!	!	!	!	!	!	!LO:SIC:v:l:s=-ae	!	!	!	!	!	!	!
8En\J	x 5	.	16cc\	.	16ee-\)	.	.	.	.	16ee-\LL	-e	.	.	(16cc\	.	(16ee-\	.
.	.	.	16b-\JJ	.	16dd\JJ	.	.	.	.	16dd\JJ	.	.	.	16b-\JJ)	.	16dd\JJ)	.
!	!	!	!	!	!	!	!	!	!	!	!	!	!	!LO:LB:g=original	!	!	!
=71	=71	=71	=71	=71	=71	=71	=71	=71	=71	=71	=71	=71	=71	=71	=71	=71	=71
!LO:TX:a:t=P:problem:mixed beam	!	!	!	!	!	!	!	!	!	!	!	!	!	!	!	!	!
8F\L	x 4	.	8b-\L	.	8dd\L	.	2ryy	2ryy	2ryy	8dd\	re-	2ryy	2ryy	8b-\L	.	8dd\L	.
8FF/J	x 3	.	8a\J	.	8cc\J	.	.	.	.	8cc\	-ges	.	.	16a\L	.	16cc\L	.
.	.	.	.	.	.	.	.	.	.	.	.	.	.	16cc\JJ	.	16ee-\JJ	.
!	!	!	!	!	!	!	!	!	!	!	!	!	!	!	!	!LO:LB:g=original	!
4r	.	.	4r	.	4r	.	.	.	.	4r	.	.	.	(16cc\LL	.	(16ee-\LL	.
.	.	.	.	.	.	.	.	.	.	.	.	.	.	16b-\)	.	16dd\)	.
.	.	.	.	.	.	.	.	.	.	.	.	.	.	(16b-\	.	(16dd\	.
.	.	.	.	.	.	.	.	.	.	.	.	.	.	16a\JJ)	.	16cc\JJ)	.
=72	=72	=72	=72	=72	=72	=72	=72	=72	=72	=72	=72	=72	=72	=72	=72	=72	=72
!	!	!	!	!	!LO:N:vis=8	!	!	!	!	!	!	!	!	!	!	!	!
8r	.	.	8r	.	8.f/L	.	2ryy	2ryy	2ryy	8.f\L	Do-	2ryy	2ryy	4b-\	.	4b-\	.
!LO:TX:a:t=P:problem:mixed beam	!	!	!	!	!	!	!	!	!	!	!	!	!	!	!	!	!
8B-\L	.	.	8f/L	.	.	.	.	.	.	.	.	.	.	.	.	.	.
.	.	.	.	.	16b-/Jk	.	.	.	.	16b-\Jk	.	.	.	.	.	.	.
8BB-/	.	.	8f/	.	(16dd\LL	.	.	.	.	16dd\LL	.	.	.	4r	.	4r	.
.	.	.	.	.	16b-\)	.	.	.	.	16b-\	.	.	.	.	.	.	.
8B-\J	.	.	8f/J	.	(16ff\	.	.	.	.	16ff\	.	.	.	.	.	.	.
.	.	.	.	.	16dd\JJ)	.	.	.	.	16dd\JJ	.	.	.	.	.	.	.
!	!	!	!	!	!LO:LB:g=original	!	!	!	!	!LO:LB:g=original	!	!	!	!	!	!	!
*	*	*	*	*	*custos:cc	*	*	*	*	*	*	*	*	*	*	*	*
=73	=73	=73	=73	=73	=73	=73	=73	=73	=73	=73	=73	=73	=73	=73	=73	=73	=73
8r	.	.	8r	.	16dd\LL	.	2ryy	2ryy	2ryy	16dd\	-mi-	2ryy	2ryy	16b-\LL	.	(16dd\LL	p
.	.	.	.	.	16cc\JJ	.	.	.	.	16cc\	-nus	.	.	16a\JJ	.	16cc\JJ)	.
8F\L	.	.	8a/L	.	4cc\	.	.	.	.	4cc\	.	.	.	4a\	.	4cc\	.
8F\	.	.	8a/	.	.	.	.	.	.	.	.	.	.	.	.	.	.
8A\J	x 6	.	8f/J	.	8ee-\	.	.	.	.	8ee-\	a	.	.	8cc\	.	8ee-\	.
!LO:LB:g=original	!	!	!	!	!	!	!	!	!	!	!	!	!	!	!	!	!
=74	=74	=74	=74	=74	=74	=74	=74	=74	=74	=74	=74	=74	=74	=74	=74	=74	=74
8r	.	.	(32b-\LLL	.	32dd\LLL	.	2ryy	2ryy	2ryy	32dd\LLL	dex-	2ryy	2ryy	(32b-\LLL	.	(32dd\LLL	.
.	.	.	32a\	.	(32cc\	.	.	.	.	32cc\	.	.	.	32a\	.	32cc\	.
.	.	.	32b-\)	.	32dd\	.	.	.	.	32dd\	.	.	.	32b-\	.	32dd\	.
.	.	.	32cc\JJJ	.	32ee-\JJJ)	.	.	.	.	32ee-\JJJ	.	.	.	32cc\JJJ)	.	32ee-\JJJ)	.
!	!	!	!	!	!	!	!	!	!	!LO:TX:t=P:problem:poprawki ołówkiem?	!	!	!	!	!	!	!
8B-\L	.	.	4dd\	.	4ff\	.	.	.	.	8ff\	.	.	.	4dd\	.	4ff\	.
8B-\	.	.	.	.	.	.	.	.	.	8ee-\	.	.	.	.	.	.	.
8B-\J	.	.	16cc\LL	.	16ee-\LL	.	.	.	.	16ee-\LL	-tris	.	.	16cc\LL	.	16ee-\LL	.
.	.	.	16b-\JJ	.	16dd\JJ	.	.	.	.	16dd\JJ	.	.	.	16b-\JJ	.	16dd\JJ	.
=75	=75	=75	=75	=75	=75	=75	=75	=75	=75	=75	=75	=75	=75	=75	=75	=75	=75
!LO:TX:a:t=P:problem:mixed beam	!	!LO:DY:t=f&colon;	!	!	!	!LO:DY:rj	!	!	!	!	!	!	!	!	!	!	!
16F\LL	.	f	8b-\L	.	8dd\L	f	2ryy	2ryy	2ryy	8dd\	tu-	2ryy	2ryy	8b-\L	.	8dd\L	.
16FF/	.	.	.	.	.	.	.	.	.	.	.	.	.	.	.	.	.
16AA/	.	.	8a\	.	8ff 8a\	.	.	.	.	8cc\	-is	.	.	8a\	.	8cc\	.
16C/JJ	.	.	.	.	.	.	.	.	.	.	.	.	.	.	.	.	.
!	!	!	!	!LO:DY:t=f.	!	!	!	!	!	!	!	!	!	!	!	!	!
8F\	.	.	8ffJ 8a\	f	8ffJ 8a\	.	.	.	.	8r	.	.	.	8a\J	.	8cc\J	.
8r	.	.	8r	.	8r	.	.	.	.	8cc\	Con-	.	.	8r	.	8r	.
=76	=76	=76	=76	=76	=76	=76	=76	=76	=76	=76	=76	=76	=76	=76	=76	=76	=76
*tremolo	*	*	*tremolo	*	*tremolo	*	*	*	*	*	*	*	*	*	*	*	*
!	!	!LO:DY:t=p&colon;	!	!LO:DY:b:rj:t=p.	!	!	!	!	!	!	!	!	!	!	!	!	!
8B-\L	.	p	8d/L	p	8f/L	.	2ryy	2ryy	2ryy	16dd\LL	-fre-	2ryy	2ryy	2b-\	.	2dd\	.
.	.	.	.	.	.	.	.	.	.	16ff\J	.	.	.	.	.	.	.
8B-\	.	.	8d/	.	8f/	.	.	.	.	8ff\J	.	.	.	.	.	.	.
8B-\	.	.	8d/	.	8f/	.	.	.	.	16r	.	.	.	.	.	.	.
.	.	.	.	.	.	.	.	.	.	32f/LLL	.	.	.	.	.	.	.
.	.	.	.	.	.	.	.	.	.	32g/JJJ	.	.	.	.	.	.	.
8B-\J	.	.	8d/J	.	8f/J	.	.	.	.	32a\LLL	.	.	.	.	.	.	.
.	.	.	.	.	.	.	.	.	.	32b-\	.	.	.	.	.	.	.
.	.	.	.	.	.	.	.	.	.	32cc\	.	.	.	.	.	.	.
.	.	.	.	.	.	.	.	.	.	32dd\JJJ	.	.	.	.	.	.	.
!	!	!	!	!	!	!	!	!	!	!LO:LB:g=original	!	!	!	!	!	!	!
=77	=77	=77	=77	=77	=77	=77	=77	=77	=77	=77	=77	=77	=77	=77	=77	=77	=77
8F\L	x 7	.	8c/L	.	8a/L	.	2ryy	2ryy	2ryy	16ee-\LL	.	2ryy	2ryy	2cc\	.	2ee-\	.
.	.	.	.	.	.	.	.	.	.	16cc\JJ	.	.	.	.	.	.	.
8F\	.	.	8c/	.	8a/	.	.	.	.	24cc\LL	.	.	.	.	.	.	.
.	.	.	.	.	.	.	.	.	.	24b-\	.	.	.	.	.	.	.
.	.	.	.	.	.	.	.	.	.	24cc\JJ	.	.	.	.	.	.	.
8F\	.	.	8c/	.	8a/	.	.	.	.	24a\LL	.	.	.	.	.	.	.
.	.	.	.	.	.	.	.	.	.	24cc\	.	.	.	.	.	.	.
.	.	.	.	.	.	.	.	.	.	24dd\JJ	.	.	.	.	.	.	.
8F\J	.	.	8c/J	.	8a/J	.	.	.	.	24ee-\LL	.	.	.	.	.	.	.
.	.	.	.	.	.	.	.	.	.	24dd\	.	.	.	.	.	.	.
.	.	.	.	.	.	.	.	.	.	24cc\JJ	.	.	.	.	.	.	.
=78	=78	=78	=78	=78	=78	=78	=78	=78	=78	=78	=78	=78	=78	=78	=78	=78	=78
8B-\L	.	.	8d/L	.	8f/L	.	2ryy	2ryy	2ryy	16dd\LL	.	2ryy	2ryy	2b-\	.	2dd\	.
.	.	.	.	.	.	.	.	.	.	16ff\J	.	.	.	.	.	.	.
8B-\	.	.	8d/	.	8f/	.	.	.	.	8ff\J	.	.	.	.	.	.	.
8B-\	.	.	8d/	.	8f/	.	.	.	.	16r	.	.	.	.	.	.	.
.	.	.	.	.	.	.	.	.	.	32f/LLL	.	.	.	.	.	.	.
.	.	.	.	.	.	.	.	.	.	32g/JJJ	.	.	.	.	.	.	.
8B-\J	.	.	8d/J	.	8f/J	.	.	.	.	32a/LLL	.	.	.	.	.	.	.
.	.	.	.	.	.	.	.	.	.	32b-/	.	.	.	.	.	.	.
.	.	.	.	.	.	.	.	.	.	32cc/	.	.	.	.	.	.	.
.	.	.	.	.	.	.	.	.	.	32dd/JJJ	.	.	.	.	.	.	.
=79	=79	=79	=79	=79	=79	=79	=79	=79	=79	=79	=79	=79	=79	=79	=79	=79	=79
8F\L	.	.	8c/L	.	8a/L	.	2ryy	2ryy	2ryy	16ee-\LL	.	2ryy	2ryy	2cc\	.	2ee-\	.
.	.	.	.	.	.	.	.	.	.	16cc\JJ	.	.	.	.	.	.	.
8F\	.	.	8c/	.	8a/	.	.	.	.	24cc\LL	.	.	.	.	.	.	.
.	.	.	.	.	.	.	.	.	.	24b-\	.	.	.	.	.	.	.
.	.	.	.	.	.	.	.	.	.	24cc\JJ	.	.	.	.	.	.	.
8F\	.	.	8c/	.	8a/	.	.	.	.	24a\LL	.	.	.	.	.	.	.
.	.	.	.	.	.	.	.	.	.	24cc\	.	.	.	.	.	.	.
.	.	.	.	.	.	.	.	.	.	24dd\JJ	.	.	.	.	.	.	.
8F\J	.	.	8c/J	.	8a/J	.	.	.	.	24ee-\LL	.	.	.	.	.	.	.
.	.	.	.	.	.	.	.	.	.	24dd\	.	.	.	.	.	.	.
.	.	.	.	.	.	.	.	.	.	24cc\JJ	.	.	.	.	.	.	.
*	*	*	*	*	*Xtremolo	*	*	*	*	*	*	*	*	*	*	*	*
=80	=80	=80	=80	=80	=80	=80	=80	=80	=80	=80	=80	=80	=80	=80	=80	=80	=80
8B-\L	.	.	8d/L	.	(16b-\LL	.	2ryy	2ryy	2ryy	16b-\LL	.	2ryy	2ryy	4b-\	.	4dd\	.
.	.	.	.	.	16ff\JJ)	.	.	.	.	16ff\JJ	.	.	.	.	.	.	.
8B-\	.	.	8d/	.	4ff\	.	.	.	.	4ff\	-git	.	.	.	.	.	.
8B-\	.	.	8d/	.	.	.	.	.	.	.	.	.	.	4r	.	4r	.
8B-\J	.	.	8d/J	.	8ff#X\	.	.	.	.	8ff#X\	in	.	.	.	.	.	.
!	!	!	!	!	!LO:LB:g=original	!	!	!	!	!LO:PB:g=original	!	!	!	!	!	!	!
=81	=81	=81	=81	=81	=81	=81	=81	=81	=81	=81	=81	=81	=81	=81	=81	=81	=81
!	!	!	!	!	!	!	!	!	!	!LO:N:vis=16	!	!	!	!LO:TX:a:t=3.	!	!LO:TX:a:t=3.	!
!	!	!	!	!	!	!	!	!	!	!	!	!	!	!LO:N:vis=0	!	!LO:N:vis=0	!
8A\L	x 6	.	8c/L	.	(32gg\LLL	.	2ryy	2ryy	2ryy	32gg\LLL	di-	2ryy	2ryy	1r	.	1r	.
!	!	!	!	!	!	!	!	!	!	!LO:SIC:v:s=32ff#\	!	!	!	!	!	!	!
!	!	!	!	!	!LO:SIC:v:s=32ff#\	!	!	!	!	!LO:N:vis=16	!	!	!	!	!	!	!
.	.	.	.	.	32ff\	.	.	.	.	32ff\	.	.	.	.	.	.	.
!	!	!	!	!	!	!	!	!	!	!LO:N:vis=16	!	!	!	!	!	!	!
.	.	.	.	.	32gg\)	.	.	.	.	32gg\	.	.	.	.	.	.	.
!	!	!	!	!	!	!	!	!	!	!LO:N:vis=16	!	!	!	!	!	!	!
.	.	.	.	.	32aa\JJJ	.	.	.	.	32aa\JJJ	.	.	.	.	.	.	.
8A\	.	.	8c/	.	4gg\	.	.	.	.	4gg\	.	.	.	.	.	.	.
8A\	.	.	8c/	.	.	.	.	.	.	.	.	.	.	.	.	.	.
8A\J	.	.	8c/J	.	16ffn\LL	.	.	.	.	16ffn\LL	-e	.	.	.	.	.	.
.	.	.	.	.	16ee-\JJ	.	.	.	.	16ee-\JJ	.	.	.	.	.	.	.
!	!	!	!LO:LB:g=original	!	!	!	!	!	!	!	!	!	!	!	!	!	!
=82	=82	=82	=82	=82	=82	=82	=82	=82	=82	=82	=82	=82	=82	=82	=82	=82	=82
8B-\L	.	.	8d/L	.	16ee-\LL	.	2ryy	2ryy	2ryy	16ee-\LL	i-	2ryy	2ryy	.	.	.	.
.	.	.	.	.	16dd\J	.	.	.	.	16dd\JJ	.	.	.	.	.	.	.
!	!	!	!	!	!	!	!	!	!	!LO:SIC:v:l:s=-rae	!	!	!	!	!	!	!
8B-\	.	.	8d/	.	8dd\J	.	.	.	.	8dd\	-re	.	.	.	.	.	.
8B-\	.	.	8d/	.	16r	.	.	.	.	16r	.	.	.	.	.	.	.
.	.	.	.	.	16ff\LL	.	.	.	.	16ff\LL	in	.	.	.	.	.	.
8B-\J	.	.	8d/J	.	16dd\	.	.	.	.	16dd\	.	.	.	.	.	.	.
.	.	.	.	.	16b-\JJ	.	.	.	.	16b-\JJ	.	.	.	.	.	.	.
*Xtremolo	*	*	*	*	*	*	*	*	*	*	*	*	*	*	*	*	*
=83	=83	=83	=83	=83	=83	=83	=83	=83	=83	=83	=83	=83	=83	=83	=83	=83	=83
8F\L	x 6	.	8c/L	.	32a/LLL	.	2ryy	2ryy	2ryy	32a\LLL	di-	2ryy	2ryy	2r	.	2r	.
.	.	.	.	.	32b-/	.	.	.	.	32b-\	.	.	.	.	.	.	.
.	.	.	.	.	32cc/	.	.	.	.	32cc\	.	.	.	.	.	.	.
.	.	.	.	.	32b-/JJJ	.	.	.	.	32b-\JJJ	.	.	.	.	.	.	.
8F\	.	.	8c/	.	8a/	.	.	.	.	8a\	-e	.	.	.	.	.	.
8A\	x -5	.	8c/	.	16r	.	.	.	.	16r	.	.	.	.	.	.	.
.	.	.	.	.	32cc\LLL	.	.	.	.	32cc\LLL	in	.	.	.	.	.	.
.	.	.	.	.	32b-\JJJ	.	.	.	.	32b-\JJJ	.	.	.	.	.	.	.
8A\J	.	.	8c/J	.	32a/LLL	.	.	.	.	32a/LLL	.	.	.	.	.	.	.
.	.	.	.	.	32g/	.	.	.	.	32g/	.	.	.	.	.	.	.
.	.	.	.	.	32f/	.	.	.	.	32f/	.	.	.	.	.	.	.
.	.	.	.	.	32e-/JJJ	.	.	.	.	32e-/JJJ	.	.	.	.	.	.	.
*	*	*	*Xtremolo	*	*	*	*	*	*	*	*	*	*	*	*	*	*
=84	=84	=84	=84	=84	=84	=84	=84	=84	=84	=84	=84	=84	=84	=84	=84	=84	=84
!LO:TX:a:t=P:problem:mixed beam	!	!	!	!	!LO:TUP:b:problem:klamra łukowa	!	!	!	!	!	!	!	!	!	!	!	!
8B-\L	.	.	8d/L	.	24d/LL	.	2ryy	2ryy	2ryy	24d/LL	di-	2ryy	2ryy	8r	.	8r	.
.	.	.	.	.	24f/	.	.	.	.	24f/	.	.	.	.	.	.	.
!	!	!	!	!	!	!	!	!	!	!LO:TX:b:t=h	!	!	!	!	!	!	!
!	!	!	!	!	!LO:SIC:v:s=24b-/JJ	!	!	!	!	!LO:TX:a:t=h.	!	!	!	!	!	!	!
.	.	.	.	.	24a/JJ	.	.	.	.	24b-/JJ	.	.	.	.	.	.	.
!	!	!	!	!	!LO:TUP:a:problem:klamra łukowa	!	!	!	!	!	!	!	!	!	!	!	!
8E-\	.	.	8e-/	.	24ee-\LL	.	.	.	.	24ee-\LL	-e	.	.	8cc\L	.	8ee-\L	.
.	.	.	.	.	24dd\	.	.	.	.	24dd\	.	.	.	.	.	.	.
.	.	.	.	.	24cc\JJ	.	.	.	.	24cc\JJ	.	.	.	.	.	.	.
8F\	x 4	.	8d/	.	8b-\L	.	.	.	.	8b-\L	i-	.	.	8b-\	.	8dd\	.
!	!	!	!	!	!	!	!	!	!	!LO:SIC:v:l:s=-rae	!	!	!	!	!	!	!
8FF/J	x 3	.	8c/J	.	8a\J	.	.	.	.	8a\J	-re	.	.	8a\J	.	8cc\J	.
!	!	!	!	!	!LO:LB:g=original	!	!	!	!	!LO:LB:g=original	!	!	!	!	!	!	!
=85	=85	=85	=85	=85	=85	=85	=85	=85	=85	=85	=85	=85	=85	=85	=85	=85	=85
4BB-/	.	.	4d/	.	(16b-\LL	.	2ryy	2ryy	2ryy	16b-\LL	.	2ryy	2ryy	4b-\	.	4dd\	.
.	.	.	.	.	16aa-X\	.	.	.	.	16aa-X\	.	.	.	.	.	.	.
.	.	.	.	.	16gg\)	.	.	.	.	16gg\	.	.	.	.	.	.	.
.	.	.	.	.	16ff#X\JJ	.	.	.	.	16gg-X\JJ	.	.	.	.	.	.	.
!	!	!	!	!	!	!	!	!	!	!	!	!	!	!LO:TX:b:i:t=Volti Subito	!	!	!
4r	.	.	4r	.	(16ffn\LL	.	.	.	.	16ff\LL	.	.	.	4r	.	4r	.
.	.	.	.	.	16een\	.	.	.	.	16een\	.	.	.	.	.	.	.
.	.	.	.	.	16ee-X\)	.	.	.	.	16ee-X\	.	.	.	.	.	.	.
.	.	.	.	.	16dd\JJ	.	.	.	.	16dd\JJ	.	.	.	.	.	.	.
!	!	!	!	!	!	!	!	!	!	!	!	!	!	!LO:PB:g=original	!	!	!
=86	=86	=86	=86	=86	=86	=86	=86	=86	=86	=86	=86	=86	=86	=86	=86	=86	=86
!LO:TX:a:t=P:problem:mixed beam	!	!	!	!	!	!	!	!	!	!	!	!	!	!	!	!	!
8B-\L	.	.	8f/L	.	(32cc\LLL	.	2ryy	2ryy	2ryy	32cc\LLL	.	2ryy	2ryy	8r	.	8r	.
.	.	.	.	.	32dd\	.	.	.	.	32dd\	.	.	.	.	.	.	.
.	.	.	.	.	32ee-\	.	.	.	.	32ee-\	su-	.	.	.	.	.	.
.	.	.	.	.	32dd\JJJ)	.	.	.	.	32dd\JJJ	.	.	.	.	.	.	.
8E-\	.	.	8g/	.	32ff\LLL	.	.	.	.	32ff\LLL	.	.	.	8cc\L	.	8ee-\L	.
.	.	.	.	.	(32ee-\	.	.	.	.	32ee-\	.	.	.	.	.	.	.
!	!	!	!	!	!	!	!	!	!	!LO:SIC:v:l:s=-ae	!	!	!	!	!	!	!
.	.	.	.	.	32dd\	.	.	.	.	32dd\	-e	.	.	.	.	.	.
.	.	.	.	.	32cc\JJJ)	.	.	.	.	32cc\JJJ	.	.	.	.	.	.	.
8F\	.	.	8d/	.	8dd\L	.	.	.	.	8b-\L	re-	.	.	8b-\	.	8dd\	.
8FF/J	.	.	8c/J	.	8cc\J	.	.	.	.	8a\J	.	.	.	8a\J	.	8cc\J	.
=87	=87	=87	=87	=87	=87	=87	=87	=87	=87	=87	=87	=87	=87	=87	=87	=87	=87
!LO:TX:a:t=P:problem:mixed beam	!	!	!	!LO:DY:b:rj:t=f&colon;	!	!	!	!	!	!	!	!	!	!	!	!	!
8BB-/L	.	.	(32d/LLL	f	4b-\	.	2ryy	2ryy	2ryy	4b-\	-ges	2ryy	2ryy	2b-\	.	2dd\	.
.	.	.	32e-/	.	.	.	.	.	.	.	.	.	.	.	.	.	.
.	.	.	32f/	.	.	.	.	.	.	.	.	.	.	.	.	.	.
.	.	.	32e-/JJ)	.	.	.	.	.	.	.	.	.	.	.	.	.	.
8B-\	.	.	8d/J	.	.	.	.	.	.	.	.	.	.	.	.	.	.
8BB-/J	.	.	16r	.	16r	.	.	.	.	4r	.	.	.	.	.	.	.
!	!	!	!LO:TX:a:t=P:problem:mixed beam	!	!	!	!	!	!	!	!	!	!	!	!	!	!
.	.	.	(16d/LL	.	(16b-\LL	.	.	.	.	.	.	.	.	.	.	.	.
8r	.	.	16dd\	.	16ff\	.	.	.	.	.	.	.	.	.	.	.	.
.	.	.	16b-\JJ)	.	16dd\JJ)	.	.	.	.	.	.	.	.	.	.	.	.
!LO:LB:g=original	!	!	!	!	!	!	!	!	!	!	!	!	!	!	!	!	!
=88	=88	=88	=88	=88	=88	=88	=88	=88	=88	=88	=88	=88	=88	=88	=88	=88	=88
!	!	!	!	!	!	!	!	!	!	!LO:TX:a:t=14.	!	!	!	!	!	!	!
!	!	!	!	!	!	!	!	!	!	!LO:TX:b:t=14.	!	!	!	!	!	!	!
!	!	!	!	!	!	!	!	!	!	!LO:N:vis=00	!	!	!	!	!	!	!
8r	.	.	(16b-\LL	.	(16dd\LL	.	2ryy	2ryy	2ryy	0r	.	2ryy	2ryy	2cc\	.	2ee-\	.
.	.	.	16a\J)	.	16cc\J)	.	.	.	.	.	.	.	.	.	.	.	.
8F\L	.	.	8a|\J	.	8cc|\J	.	.	.	.	.	.	.	.	.	.	.	.
8F\	.	.	16r	.	16r	.	.	.	.	.	.	.	.	.	.	.	.
.	.	.	(16ee-\LL	.	16gg\LL	.	.	.	.	.	.	.	.	.	.	.	.
8A\J	.	.	16dd\	.	16ff\	.	.	.	.	.	.	.	.	.	.	.	.
.	.	.	16cc\JJ)	.	16ee-\JJ	.	.	.	.	.	.	.	.	.	.	.	.
=89	=89	=89	=89	=89	=89	=89	=89	=89	=89	=89	=89	=89	=89	=89	=89	=89	=89
8r	.	.	(16b-\LL	.	16dd\LL	.	2ryy	2ryy	2ryy	.	.	2ryy	2ryy	2dd\	.	2ff\	.
.	.	.	16cc\J)	.	16ee-\J	.	.	.	.	.	.	.	.	.	.	.	.
8B-\L	.	.	8dd|\J	.	8ff\J	.	.	.	.	.	.	.	.	.	.	.	.
8B-\	.	.	16r	.	16r	.	.	.	.	.	.	.	.	.	.	.	.
!	!	!	!	!	!LO:LB:g=original	!	!	!	!	!	!	!	!	!	!	!	!
.	.	.	16dd\LL	.	16ff\LL	.	.	.	.	.	.	.	.	.	.	.	.
8B-\J	.	.	16dd\	.	16ff\	.	.	.	.	.	.	.	.	.	.	.	.
.	.	.	16dd\JJ	.	16ff\JJ	.	.	.	.	.	.	.	.	.	.	.	.
=90	=90	=90	=90	=90	=90	=90	=90	=90	=90	=90	=90	=90	=90	=90	=90	=90	=90
!LO:TX:a:t=P:problem:mixed beam	!	!	!	!	!	!	!	!	!	!	!	!	!	!	!	!	!
8B-\L	.	.	(16dd\LL	.	(16ff\LL	.	2ryy	2ryy	2ryy	.	.	2ryy	2ryy	4dd\	.	4ff\	.
.	.	.	16b-\	.	16dd\)	.	.	.	.	.	.	.	.	.	.	.	.
8BB-/J	.	.	16ee-\)	.	(16gg\	.	.	.	.	.	.	.	.	.	.	.	.
.	.	.	16dd\JJ	.	16ff\JJ)	.	.	.	.	.	.	.	.	.	.	.	.
8E-\L	.	.	(16dd\LL	.	(16ff\LL	.	.	.	.	.	.	.	.	4r	.	4r	.
.	.	.	16cc\	.	16ee-\)	.	.	.	.	.	.	.	.	.	.	.	.
8En\J	.	.	16cc\	.	(16ee-\	.	.	.	.	.	.	.	.	.	.	.	.
.	.	.	16b-\JJ)	.	16dd\JJ)	.	.	.	.	.	.	.	.	.	.	.	.
=91	=91	=91	=91	=91	=91	=91	=91	=91	=91	=91	=91	=91	=91	=91	=91	=91	=91
!LO:TX:a:t=P:problem:mixed beam	!	!	!	!	!	!	!	!	!	!	!	!	!	!	!	!LO:TX:a:i:t=Solo.	!
8F\L	.	.	8b-/L	.	8dd\L	.	2ryy	2ryy	2ryy	.	.	2ryy	2ryy	4r	.	4r	.
8FF/	x 4	.	8a/	.	8cc\	.	.	.	.	.	.	.	.	.	.	.	.
8F\J	x n	.	8a/J	.	8cc\J	.	.	.	.	.	.	.	.	8r	.	8r	.
!	!	!	!	!	!	!	!	!	!	!	!	!	!	!LO:TX:a:i:t=Solo	!	!	!
8r	.	.	8r	.	8r	.	.	.	.	.	.	.	.	16dd\LL	.	16ff\LL	.
.	.	.	.	.	.	.	.	.	.	.	.	.	.	16cc\JJ	.	16ee-\JJ	.
!	!	!	!LO:LB:g=original	!	!	!	!	!	!	!	!	!	!	!	!	!	!
=92	=92	=92	=92	=92	=92	=92	=92	=92	=92	=92	=92	=92	=92	=92	=92	=92	=92
!LO:TX:a:t=3.	!	!	!	!	!	!	!	!	!	!	!	!	!	!	!	!	!
.	.	.	.	.	.	.	.	.	.	.	.	.	.	8qqcc/	.	8qqee-/	.
!LO:N:vis=0	!	!	!	!	!	!	!	!	!	!LO:N:vis=00	!	!	!	!	!	!	!
1r	.	.	8r	p	8r	.	2ryy	2ryy	2ryy	0r	.	2ryy	2ryy	8b-\	.	8dd\	.
!	!	!	!	!	!	!LO:DY:rj	!	!	!	!	!	!	!	!	!	!	!
.	.	.	8B-/L	.	8B-/L	p	.	.	.	.	.	.	.	4b-\	.	4dd\	.
.	.	.	8B-/	.	8B-/	.	.	.	.	.	.	.	.	.	.	.	.
.	.	.	8B-/J	.	8B-/J	.	.	.	.	.	.	.	.	16ee-\LL	.	16gg\LL	.
.	.	.	.	.	.	.	.	.	.	.	.	.	.	16dd\JJ	.	16ff\JJ	.
!	!	!	!	!	!	!	!	!	!	!	!	!	!	!	!	!LO:LB:g=original	!
=93	=93	=93	=93	=93	=93	=93	=93	=93	=93	=93	=93	=93	=93	=93	=93	=93	=93
.	.	.	8r	.	8r	.	2ryy	2ryy	2ryy	.	.	2ryy	2ryy	(32dd\LLL	.	(32ff\LLL	.
.	.	.	.	.	.	.	.	.	.	.	.	.	.	32cc\	.	32ee-\	.
.	.	.	.	.	.	.	.	.	.	.	.	.	.	32b-\)	.	32dd\)	.
.	.	.	.	.	.	.	.	.	.	.	.	.	.	32cc\JJ	.	32ee-\JJ	.
.	.	.	8A/L	.	8A/L	.	.	.	.	.	.	.	.	8cc'\J	.	8ee-'\J	.
.	.	.	8A/	.	8A/	.	.	.	.	.	.	.	.	8r	.	8r	.
.	.	.	8A/J	.	8A/J	.	.	.	.	.	.	.	.	16cc\LL	.	16ee-\LL	.
.	.	.	.	.	.	.	.	.	.	.	.	.	.	16b-\JJ	.	16dd\JJ	.
=94	=94	=94	=94	=94	=94	=94	=94	=94	=94	=94	=94	=94	=94	=94	=94	=94	=94
.	.	.	.	.	.	.	.	.	.	.	.	.	.	8qqb-/	.	8qqdd/	.
2r	.	.	8r	.	8r	.	2ryy	2ryy	2ryy	.	.	2ryy	2ryy	8a\	.	8cc\	.
.	.	.	8f/L	.	8f/L	.	.	.	.	.	.	.	.	4a\	.	4cc\	.
.	.	.	8f/	.	8f/	.	.	.	.	.	.	.	.	.	.	.	.
.	.	.	8f/J	.	8f/J	.	.	.	.	.	.	.	.	16dd\LL	.	16ff\LL	.
.	.	.	.	.	.	.	.	.	.	.	.	.	.	16cc\JJ	.	16ee-\JJ	.
!	!	!	!	!	!LO:LB:g=original	!	!	!	!	!	!	!	!	!	!	!	!
*	*	*	*	*	*custos:cc	*	*	*	*	*	*	*	*	*	*	*	*
=95	=95	=95	=95	=95	=95	=95	=95	=95	=95	=95	=95	=95	=95	=95	=95	=95	=95
4r	.	.	8B-/L	.	8B-/L	.	2ryy	2ryy	2ryy	.	.	2ryy	2ryy	(32cc\LLL	.	(32ee-\LLL	.
.	.	.	.	.	.	.	.	.	.	.	.	.	.	32b-\	.	32dd\	.
.	.	.	.	.	.	.	.	.	.	.	.	.	.	32a\)	.	32cc\)	.
.	.	.	.	.	.	.	.	.	.	.	.	.	.	32b-\JJ	.	32dd\JJ	.
.	.	.	8B-/J	.	8B-/J	.	.	.	.	.	.	.	.	8b-|\J	.	8dd\J	.
!	!	!	!	!LO:DY:a:t=for.	!	!LO:DY:rj	!	!	!	!	!	!	!	!	!	!	!
8B-\L	.	.	(16B-/LL	f	(16b-\LL	f	.	.	.	.	.	.	.	8r	.	8r	.
.	.	.	16d/)	.	16dd\)	.	.	.	.	.	.	.	.	.	.	.	.
8d\J	.	.	16f'/	.	16ff|\	.	.	.	.	.	.	.	.	8b-\	.	8dd\	.
.	.	.	16f'/JJ	.	16ff|\JJ	.	.	.	.	.	.	.	.	.	.	.	.
=96	=96	=96	=96	=96	=96	=96	=96	=96	=96	=96	=96	=96	=96	=96	=96	=96	=96
!	!	!	!	!	!	!	!	!	!	!LO:N:vis=00	!	!	!	!	!	!	!
8A\L	.	.	(16f/LL	.	16ff\LL	.	2ryy	2ryy	2ryy	0r	.	2ryy	2ryy	4cc\	.	4ee-\	.
.	.	.	16e-/)	.	16ee-\	.	.	.	.	.	.	.	.	.	.	.	.
8F\	.	.	16c|/	.	16cc\	.	.	.	.	.	.	.	.	.	.	.	.
.	.	.	16A|/JJ	.	16a\JJ	.	.	.	.	.	.	.	.	.	.	.	.
8B-\	.	.	(16B-/LL	.	16b-\LL	.	.	.	.	.	.	.	.	4b-\	.	4dd\	.
.	.	.	16d/)	.	16dd\	.	.	.	.	.	.	.	.	.	.	.	.
8d\J	.	.	16f'/	.	16ff\	.	.	.	.	.	.	.	.	.	.	.	.
.	.	.	16f'/JJ	.	16ff\JJ	.	.	.	.	.	.	.	.	.	.	.	.
!	!	!	!	!	!	!	!	!	!	!	!	!	!	!LO:LB:g=original	!	!	!
=97	=97	=97	=97	=97	=97	=97	=97	=97	=97	=97	=97	=97	=97	=97	=97	=97	=97
8A\L	.	.	(16f/LL	.	(16ff\LL	.	2ryy	2ryy	2ryy	.	.	2ryy	2ryy	4cc\	.	4ee-\	.
.	.	.	16e-/)	.	16ee-\)	.	.	.	.	.	.	.	.	.	.	.	.
8F\	.	.	16c'/	.	(16cc\	.	.	.	.	.	.	.	.	.	.	.	.
.	.	.	16A'/JJ	.	16a\JJ)	.	.	.	.	.	.	.	.	.	.	.	.
8B-\J	.	.	(16B-/LL	.	(16b-\LL	.	.	.	.	.	.	.	.	8b-\	.	8dd\	.
.	.	.	16d/)	.	16dd\)	.	.	.	.	.	.	.	.	.	.	.	.
8r	.	.	16f'/	.	16ff|\	.	.	.	.	.	.	.	.	8r	.	8r	.
!	!	!	!	!	!LO:SIC:v:s=16ff#|\JJ	!	!	!	!	!	!	!	!	!	!	!	!
.	.	.	16f#X'/JJ	.	16ff|\JJ	.	.	.	.	.	.	.	.	.	.	.	.
=98	=98	=98	=98	=98	=98	=98	=98	=98	=98	=98	=98	=98	=98	=98	=98	=98	=98
*tremolo	*	*	*	*	*	*	*	*	*	*	*	*	*	*	*	*	*
!	!	!	!	!	!	!	!	!	!	!	!	!	!	!LO:TX:a:i:t=Solo	!	!	!
8B-\L	6 4	.	8g/	p	8gg\	p	2ryy	2ryy	2ryy	.	.	2ryy	2ryy	8r	.	8r	.
8B-\	.	.	4e-/	.	4g/	.	.	.	.	.	.	.	.	4ee-\	.	4gg\	.
8B-\	.	.	.	.	.	.	.	.	.	.	.	.	.	.	.	.	.
8B-\J	.	.	(16d/LL	.	16f/LL	.	.	.	.	.	.	.	.	16dd\LL	.	16ff\LL	.
.	.	.	16c/JJ)	.	16e-/JJ	.	.	.	.	.	.	.	.	16cc\JJ	.	16ee-\JJ	.
=99	=99	=99	=99	=99	=99	=99	=99	=99	=99	=99	=99	=99	=99	=99	=99	=99	=99
8B-\L	5 3	.	(16c/LL	.	(16e-/LL	.	2ryy	2ryy	2ryy	.	.	2ryy	2ryy	16cc\LL	.	16ee-\LL	.
.	.	.	16B-/JJ)	.	16d/JJ)	.	.	.	.	.	.	.	.	16b-\JJ	.	16dd\JJ	.
8B-\	.	.	4B-/	.	4d/	.	.	.	.	.	.	.	.	4b-\	.	4dd\	.
8B-\	.	.	.	.	.	.	.	.	.	.	.	.	.	.	.	.	.
8B-\J	.	.	8d/	.	(16f/LL	.	.	.	.	.	.	.	.	8dd\	.	16ff\LL	.
.	.	.	.	.	16b-/JJ)	.	.	.	.	.	.	.	.	.	.	16bb-\JJ	.
*Xtremolo	*	*	*	*	*	*	*	*	*	*	*	*	*	*	*	*	*
=100	=100	=100	=100	=100	=100	=100	=100	=100	=100	=100	=100	=100	=100	=100	=100	=100	=100
!LO:TX:a:t=P:problem:mixed beam	!	!	!	!	!	!	!	!	!	!LO:N:vis=0	!	!	!	!	!	!	!
8E-\L	.	.	8e-/L	.	8g/L	.	2ryy	2ryy	2ryy	1r	.	2ryy	2ryy	8ee-\L	.	8gg\LL	.
*	*	*	*	*	*	*	*	*	*	*	*	*	*	*	*	*Xbrackettup	*
!	!	!	!	!	!LO:TUP:b:problem:klamra łukowa	!	!	!	!	!	!	!	!	!LO:TUP:a:problem:klamra łukowa	!	!LO:TUP:a:problem:klamra łukowa	!
8E-\	x 6	.	24e-/L	.	24g/L	.	.	.	.	.	.	.	.	24ee-\L	.	24gg\	.
.	.	.	24d/	.	24f/	.	.	.	.	.	.	.	.	24dd\	.	24ff\	.
.	.	.	24c/JJ	.	24e-/JJ	.	.	.	.	.	.	.	.	24cc\JJ	.	24ee-\JJ	.
8F\	x 4	.	8B-/L	.	8d/L	.	.	.	.	.	.	.	.	8b-\L	.	8dd\L	.
8FF/J	x 3	.	8A/J	.	8c/J	.	.	.	.	.	.	.	.	8a\J	.	8cc\J	.
!	!	!	!	!	!LO:LB:g=original	!	!	!	!	!	!	!	!	!	!	!	!
=101	=101	=101	=101	=101	=101	=101	=101	=101	=101	=101	=101	=101	=101	=101	=101	=101	=101
!LO:TX:a:t=P:problem:mixed beam	!	!	!	!	!	!	!	!	!LO:TX:b:t=Werte Judicabit	!	!	!	!	!	!	!	!
8BB-/L	.	.	4A/	.	4c/	.	2ryy	2ryy	2ryy	.	.	2ryy	2ryy	4a\	.	4cc\	.
8B-\	.	.	.	.	.	.	.	.	.	.	.	.	.	.	.	.	.
8BB-/J	.	.	8B-/	.	8d/	.	.	.	.	.	.	.	.	8b-\	.	8b-\	.
8r	.	.	8r	.	8r	.	.	.	.	.	.	.	.	8r	.	8r	.
!	!	!	!	!	!LO:TX:b:t=Judicabit	!	!	!	!	!	!	!	!	!	!	!LO:TX:b:t=Volti.	!
==	==	==	==	==	==	==	==	==	==	==	==	==	==	==	==	==	==
*-	*-	*-	*-	*-	*-	*-	*-	*-	*-	*-	*-	*-	*-	*-	*-	*-	*-
!!!system-decoration: [(g1)][(g2)][(g3)][(g4)][(g5)]
!!!RDF**kern: | = vertical stroke
!!!ENC: Katarzyna Serwa
!!!END: 2021-11-21
!!!ENC: Andrzej Borzym
!!!END: 2020-07-16
!!!YEC: Copyright 2022 Narodowy Instytut Fryderyka Chopina (https://polishscores.org)
!!!YEM: Licence CC BY 4.0 (https://creativecommons.org/licenses/by/4.0)
